rishabhfit2026/humanoid-backflip-isaaclab/new_imitation_data_walking_1.25Hz_50Hz.csv
left_hip_pitch_joint,right_hip_pitch_joint,left_hip_roll_joint,right_hip_roll_joint,left_hip_yaw_joint,right_hip_yaw_joint,left_knee_joint,right_knee_joint,left_ankle_pitch_joint,right_ankle_pitch_joint,left_ankle_roll_joint,right_ankle_roll_joint,rf_x,rf_y,rf_z,lf_x,lf_y,lf_z,rk_x,rk_y,rk_z,lk_x,lk_y,lk_z
5.602507000000014198e-02,5.602506999999995463e-02,-5.157214446073606247e-03,-1.269866956932745594e-02,-2.722713500000002035e-02,-2.722713500000006892e-02,5.707226499999992070e-02,5.511812794373183166e-17,-3.078187931361825447e-02,1.946735226135323793e-02,-2.896235082470085057e-03,-5.917990493522699846e-03,1.000000000000000056e-01,-1.100000000000000006e-01,-6.800000000000000488e-01,-1.000000000000000056e-01,1.100000000000000006e-01,-6.800000000000000488e-01,1.073201893475363572e-01,-1.195885107720840584e-01,-3.847760103330669645e-01,-7.320189347536358582e-03,1.004114892279159427e-01,-3.552239896669330266e-01
8.753369844508290809e-02,2.801253499999997176e-01,-9.957874353573004447e-03,1.125797115913970171e-02,-5.123196893686413761e-02,-1.361356750000001503e-01,1.827582554784296931e-01,-4.946236946381838556e-02,-1.878615193136183026e-01,-1.376122877386468657e-01,-7.795323038457310956e-03,1.751293386431226982e-03,9.876883405951378259e-02,-1.100000000000000006e-01,-6.909504125528161955e-01,-9.876883405951378259e-02,1.100000000000000006e-01,-6.690495874471839022e-01,1.038407099730085659e-01,-1.222161434652174195e-01,-3.920664707569723739e-01,-3.840709973008581135e-03,9.778385653478258166e-02,-3.479335292430276727e-01
3.051326668233094591e-02,4.714795584776262372e-01,-1.221691509308706937e-02,3.049770740420318024e-02,-3.583999201970701487e-03,-2.450442150000001207e-01,2.624772222420786449e-01,-2.777514294638183667e-01,-2.777025112762258052e-01,-6.178866892043738401e-02,-1.186514301381990689e-02,3.591078237585633177e-03,9.510565162951535589e-02,-1.100000000000000006e-01,-7.016311896062463749e-01,-9.510565162951535589e-02,1.100000000000000006e-01,-6.583688103937537228e-01,9.903549363187347243e-02,-1.245429741631813997e-01,-3.988135814364233145e-01,9.645063681265192423e-04,9.545702583681860143e-02,-3.411864185635766766e-01
-3.182469956706904246e-02,4.825571319194982833e-01,-1.631095271017334730e-02,3.601757114369692064e-02,4.760978460578088600e-02,-3.105462817464516578e-01,3.318310762431904704e-01,-3.294623627136656907e-01,-3.038980738253910796e-01,-1.403693783257806485e-02,-1.497537073616356934e-02,-1.394415733613900595e-02,8.910065241883680098e-02,-1.100000000000000006e-01,-7.117793349817683746e-01,-8.910065241883680098e-02,1.100000000000000006e-01,-6.482206650182317231e-01,9.302286069804854840e-02,-1.265117085718837631e-01,-4.048512061141152918e-01,6.977139301951450212e-03,9.348829142811622417e-02,-3.351487938858846993e-01
-1.095440164439476227e-01,4.378327646745294732e-01,-2.363093911888411794e-02,2.442752559808833088e-02,1.102303298053239483e-01,-2.808766207310248175e-01,4.144670040180250536e-01,-2.956844342744054388e-01,-3.318606399744239988e-01,-1.181950594165438392e-02,-1.744834195797069151e-02,-1.581220011883726836e-02,8.090169943749475623e-02,-1.100000000000000006e-01,-7.211449676604732018e-01,-8.090169943749475623e-02,1.100000000000000006e-01,-6.388550323395268959e-01,8.595086214914918199e-02,-1.280738699163274097e-01,-4.100306784327559795e-01,1.404913785085080274e-02,9.192613008367259142e-02,-3.299693215672440116e-01
-1.980252584674868921e-01,3.907770910612053394e-01,-3.546130828707411836e-02,1.395745068170946637e-02,1.798054270238229058e-01,-2.498681753094914582e-01,5.040400623752555598e-01,-2.652652872371172310e-01,-3.478084868835236154e-01,-5.665135707424489610e-03,-1.886179359351085674e-02,-1.743836433997831767e-02,7.071067811865475172e-02,-1.100000000000000006e-01,-7.294974746830583667e-01,-7.071067811865475172e-02,1.100000000000000006e-01,-6.305025253169417310e-01,7.799363406006687427e-02,-1.291909925996957975e-01,-4.142244625941773895e-01,2.200636593993310700e-02,9.080900740030418972e-02,-3.257755374058226017e-01
-2.895442438271156882e-01,3.420655580669864082e-01,-5.160185761764786438e-02,4.841596800707925405e-03,2.492728236117782159e-01,-2.178979181573513224e-01,5.905772754060474306e-01,-2.382376076122401654e-01,-3.489874054302202211e-01,3.968751634423122940e-03,-1.860051705329296770e-02,-1.872202141505543982e-02,5.877852522924729289e-02,-1.100000000000000006e-01,-7.366311896062464060e-01,-5.877852522924729289e-02,1.100000000000000006e-01,-6.233688103937536917e-01,6.934710979488076243e-02,-1.298355693540068356e-01,-4.173292937139536085e-01,3.065289020511920842e-02,9.016443064599316548e-02,-3.226707062860464381e-01
-3.793666186176564148e-01,2.922088815107674042e-01,-7.120691218717950521e-02,-2.782043068536598808e-03,3.145830763653503781e-01,-1.851921758786875261e-01,6.714022972977710113e-01,-2.142641032439309701e-01,-3.490610878393887728e-01,1.639386155130752656e-02,-1.703940650099482548e-02,-1.958198324617076852e-02,4.539904997395466379e-02,-1.100000000000000006e-01,-7.423704566931857984e-01,-4.539904997395466379e-02,1.100000000000000006e-01,-6.176295433068142993e-01,6.022419547716856975e-02,-1.299917285603417461e-01,-4.192687205455720156e-01,3.977580452283140111e-02,9.000827143965824118e-02,-3.207312794544279755e-01
-4.622966700845650978e-01,2.418044428697327664e-01,-9.227356484349842625e-02,-8.810760645499160146e-03,3.717175436341771388e-01,-1.520718893937039184e-01,7.407176957583163635e-01,-1.930679167300501653e-01,-3.490656929899617622e-01,3.098756273245661941e-02,-1.457753667466899980e-02,-1.996643096951366755e-02,3.090169943749470835e-02,-1.100000000000000006e-01,-7.465739561406607994e-01,-3.090169943749470835e-02,1.100000000000000006e-01,-6.134260438593392983e-01,5.084952753464909436e-02,-1.296556250607778793e-01,-4.199949879638495975e-01,4.915047246535086262e-02,9.034437493922210793e-02,-3.200050120361503936e-01
-5.348385334435549199e-01,1.915338529941716106e-01,-1.124415214035179716e-01,-1.318858593751950394e-02,4.184620240836821048e-01,-1.189504629203667341e-01,7.942577162456431195e-01,-1.744406738135728940e-01,-3.490659808118725671e-01,4.719277263854528698e-02,-1.166413895973206910e-02,-1.985221780112788117e-02,1.564344650402302653e-02,-1.100000000000000006e-01,-7.491381838416597549e-01,-1.564344650402302653e-02,1.100000000000000006e-01,-6.108618161583403428e-01,4.145394140480631456e-02,-1.288355348389380872e-01,-4.194902128546049713e-01,5.854605859519368405e-02,9.116446516106190001e-02,-3.205097871453950198e-01
-5.953693400277120240e-01,1.421519329442039181e-01,-1.297194457234341902e-01,-1.591602986310407253e-02,4.543397535386456410e-01,-8.632316183585744818e-02,8.301158477188431695e-01,-1.582451059998832010e-01,-3.490659988007420167e-01,6.451373185727184156e-02,-8.703821904345057647e-03,-1.924197278445294659e-02,-6.049014748177262516e-17,-1.100000000000000006e-01,-7.500000000000000000e-01,6.049014748177262516e-17,1.100000000000000006e-01,-6.100000000000000977e-01,3.226878760031959281e-02,-1.275516512378074285e-01,-4.177668244562802724e-01,6.773121239968041274e-02,9.244834876219255870e-02,-3.222331755437197187e-01
-6.433256773732739520e-01,9.447163462308569293e-02,-1.426945809658447806e-01,-1.705646484154004633e-02,4.797609735116997176e-01,-5.475217720651166797e-02,8.476869101482797930e-01,-1.444180509879905983e-01,-3.459210837708766029e-01,8.251230611392636194e-02,-5.985677071238547191e-03,-1.815963020595996735e-02,-1.564344650402316877e-02,-1.100000000000000006e-01,-7.491381838416596439e-01,1.564344650402316877e-02,1.100000000000000006e-01,-6.108618161583404538e-01,2.352023509163313902e-02,-1.258355877326111649e-01,-4.148672583108404810e-01,7.647976490836685959e-02,9.416441226738882231e-02,-3.251327416891595101e-01
-6.773332858454161887e-01,4.934908311154045935e-02,-1.498575406396811804e-01,-1.673834903915330866e-02,4.945905135244951234e-01,-2.485129274913383535e-02,8.412338040720603871e-01,-1.329767390242877767e-01,-3.118859117682075688e-01,1.008067836223735664e-01,-3.185372749501552518e-03,-1.664499566594017377e-02,-3.090169943749484019e-02,-1.100000000000000006e-01,-7.465739561406607994e-01,3.090169943749484019e-02,1.100000000000000006e-01,-6.134260438593392983e-01,1.542370227629193818e-02,-1.237295995021354400e-01,-4.108629113598945004e-01,8.457629772370803267e-02,9.627040049786456111e-02,-3.291370886401054352e-01
-6.991592328519465882e-01,7.673188385068724360e-03,-1.516888329904853006e-01,-1.515302578485590128e-02,5.007475828906751136e-01,2.725583435155475194e-03,8.177541401319972092e-01,-1.240306783858064754e-01,-2.714130818281367818e-01,1.190744289966147312e-01,-7.917428048742213183e-04,-1.474786567659235222e-02,-4.539904997395475400e-02,-1.100000000000000006e-01,-7.423704566931857984e-01,4.539904997395475400e-02,1.100000000000000006e-01,-6.176295433068142993e-01,8.178552663061597339e-03,-1.212855429659887990e-01,-4.058523839150404156e-01,9.182144733693839433e-02,9.871445703401120209e-02,-3.341476160849595756e-01
-7.098632864869179881e-01,-2.963590179868032248e-02,-1.487310921673608288e-01,-1.254818146290644608e-02,4.994660274918542031e-01,2.728787781475124768e-02,7.809684223236670331e-01,-1.178014005988052421e-01,-2.278042664174830811e-01,1.370588412565316161e-01,1.026656369146151720e-03,-1.252216408640710078e-02,-5.877852522924738310e-02,-1.100000000000000006e-01,-7.366311896062462949e-01,5.877852522924738310e-02,1.100000000000000006e-01,-6.233688103937538028e-01,1.963185880692774887e-03,-1.185635989074497743e-01,-3.999590517909576426e-01,9.803681411930723066e-02,1.014364010925502269e-01,-3.400409482090423485e-01
-7.103901144865863992e-01,-6.161585822202381157e-02,-1.416878746226356012e-01,-9.217067175084128414e-03,4.917885642703429538e-01,4.810022722830212261e-02,7.340487569097743359e-01,-1.146525911131218711e-01,-1.832300851382932805e-01,1.545832616036533491e-01,2.367965080447129514e-03,-1.002054977263937968e-02,-7.071067811865483499e-02,-1.100000000000000006e-01,-7.294974746830583667e-01,7.071067811865483499e-02,1.100000000000000006e-01,-6.305025253169417310e-01,-3.069355113012879610e-03,-1.156307906228539878e-01,-3.933280283833890389e-01,1.030693551130128643e-01,1.043692093771460133e-01,-3.466719716166109522e-01
-7.018536152211377610e-01,-8.723604095433563910e-02,-1.314589164207803085e-01,-5.483080761084494457e-03,4.787833981384959081e-01,6.436012173376959300e-02,6.803817301685676222e-01,-1.151334353455742976e-01,-1.398613826580417108e-01,1.715712081079120432e-01,3.411449538235400685e-03,-7.290000459073281598e-03,-8.090169943749481174e-02,-1.100000000000000006e-01,-7.211449676604730907e-01,8.090169943749481174e-02,1.100000000000000006e-01,-6.388550323395270070e-01,-6.795152456744314728e-03,-1.125593335856008709e-01,-3.861225914957339134e-01,1.067951524567443272e-01,1.074406664143991302e-01,-3.538774085042660777e-01
-6.854951399744154683e-01,-1.053548694613058723e-01,-1.190053900479061955e-01,-1.678016517595795707e-03,4.615221586756775296e-01,7.516005639098449764e-02,6.233272708742090273e-01,-1.200377521513185664e-01,-9.974724695718600875e-02,1.880758526936278374e-01,4.366040839594529169e-03,-4.369022085685891725e-03,-8.910065241883685649e-02,-1.100000000000000006e-01,-7.117793349817682635e-01,8.910065241883685649e-02,1.100000000000000006e-01,-6.482206650182318342e-01,-9.122464654686433805e-03,-1.094248572615290765e-01,-3.785201628976403998e-01,1.091224646546864324e-01,1.105751427384709246e-01,-3.614798371023595358e-01
-6.625800878602539079e-01,-1.146620808150949494e-01,-1.052190971445144813e-01,1.890103040922490622e-03,4.410041489838750217e-01,7.943570573496931686e-02,5.658964679615169358e-01,-1.304791654639686771e-01,-6.461523056271081811e-02,2.043186048997174264e-01,5.419406970885471721e-03,-1.287435098138836002e-03,-9.510565162951541140e-02,-1.100000000000000006e-01,-7.016311896062462639e-01,9.510565162951541140e-02,1.100000000000000006e-01,-6.583688103937538338e-01,-9.993985556619532085e-03,-1.063045428604677267e-01,-3.707079396122074932e-01,1.099939855566195446e-01,1.136954571395322744e-01,-3.692920603877924424e-01
-6.342675291553241390e-01,-1.136141537208966573e-01,-9.083235139046834383e-02,4.987495030836736586e-03,4.180607698341252121e-01,7.590858215729683056e-02,5.104581687392747424e-01,-1.479745070381374705e-01,-3.567820158592337199e-02,2.207334564717600978e-01,6.698175941162815873e-03,1.929766589103305277e-03,-9.876883405951381034e-02,-1.100000000000000006e-01,-6.909504125528160845e-01,9.876883405951381034e-02,1.100000000000000006e-01,-6.690495874471840132e-01,-9.388255425525966757e-03,-1.032752228787007787e-01,-3.628782845040052218e-01,1.093882554255259792e-01,1.167247771212992224e-01,-3.771217154959947693e-01
-6.015091030975102671e-01,-1.003892154377639123e-01,-7.639017381996821010e-02,7.536003586177915554e-03,3.932898026092219168e-01,6.304935679354962963e-02,4.585879697260595855e-01,-1.745055716380496114e-01,-1.353823766722605897e-02,2.380022910156923965e-01,8.248665217435283831e-03,5.252174634723136108e-03,-1.000000000000000056e-01,-1.100000000000000006e-01,-6.799999999999999378e-01,1.000000000000000056e-01,1.100000000000000006e-01,-6.800000000000001599e-01,-7.320189347536323887e-03,-1.004114892279159149e-01,-3.552239896669329711e-01,1.073201893475363433e-01,1.195885107720840862e-01,-3.847760103330670201e-01
-5.650199172974630368e-01,-7.293045398958258874e-02,-6.227748628619048099e-02,9.739606996816566400e-03,3.670525667964050776e-01,3.912876259703153975e-02,4.111058022735862294e-01,-2.124776593391359547e-01,1.772078937307007464e-03,2.570391413965393279e-01,1.003981562873104694e-02,8.624325639697246956e-03,-9.876883405951375483e-02,-1.100000000000000006e-01,-6.690495874471837912e-01,9.876883405951375483e-02,1.100000000000000006e-01,-6.909504125528163065e-01,-3.840709973008518685e-03,-9.778385653478254003e-02,-3.479335292430275617e-01,1.038407099730085104e-01,1.222161434652174611e-01,-3.920664707569724294e-01
-5.253190287860454166e-01,-2.922878092779745973e-02,-4.877165008302346977e-02,1.225311428518251894e-02,3.395273341131277434e-01,2.497974193336654006e-03,3.682489008908342298e-01,-2.643954788338016559e-01,1.064761765343798412e-02,2.788295816935766336e-01,1.198181587144528035e-02,1.193481551187437588e-02,-9.510565162951530038e-02,-1.100000000000000006e-01,-6.583688103937536118e-01,9.510565162951530038e-02,1.100000000000000006e-01,-7.016311896062464859e-01,9.645063681265955702e-04,-9.545702583681857367e-02,-3.411864185635765656e-01,9.903549363187341692e-02,1.245429741631814274e-01,-3.988135814364233700e-01
-4.828051591284734378e-01,3.191699582457466211e-02,-3.609134982022588894e-02,1.631742097927817853e-02,3.107876914953954239e-01,-4.768801171439085440e-02,3.298837045299223281e-01,-3.319682847512092083e-01,1.374068819078487318e-02,3.039753575647544670e-01,1.395079121639661822e-02,1.498012027513438357e-02,-8.910065241883668996e-02,-1.100000000000000006e-01,-6.482206650182316121e-01,8.910065241883668996e-02,1.100000000000000006e-01,-7.117793349817684856e-01,6.977139301951540418e-03,-9.348829142811619641e-02,-3.351487938858845883e-01,9.302286069804845126e-02,1.265117085718837908e-01,-4.048512061141154028e-01
-4.378336598935969048e-01,1.095522403410317952e-01,-2.442778464480697617e-02,2.363195766968288758e-02,2.808774127907529561e-01,-1.102372783054975242e-01,2.956860640216290026e-01,-4.144794111096802292e-01,1.181813277407200817e-02,3.318676187596107940e-01,1.581207081670505180e-02,1.744878856003457754e-02,-8.090169943749458970e-02,-1.100000000000000006e-01,-6.388550323395267849e-01,8.090169943749458970e-02,1.100000000000000006e-01,-7.211449676604733128e-01,1.404913785085092764e-02,-9.192613008367257754e-02,-3.299693215672439006e-01,8.595086214914908485e-02,1.280738699163274097e-01,-4.100306784327560905e-01
-3.907770986531016733e-01,1.980260120085579889e-01,-1.395745259037265047e-02,3.546144753777927261e-02,2.498681818960181711e-01,-1.798060562167369814e-01,2.652653009987172017e-01,-5.040411986082643514e-01,5.665123502613173510e-03,3.478089728115839052e-01,1.743836329118129969e-02,1.886183327923159417e-02,-7.071067811865458519e-02,-1.100000000000000006e-01,-6.305025253169416199e-01,7.071067811865458519e-02,1.100000000000000006e-01,-7.294974746830584778e-01,2.200636593993325271e-02,-9.080900740030417584e-02,-3.257755374058225462e-01,7.799363406006676325e-02,1.291909925996958253e-01,-4.142244625941774450e-01
-3.420655581767043096e-01,2.895443046004826382e-01,-4.841596824616781203e-03,5.160187264023942399e-02,2.178979182516651847e-01,-2.492728734053705208e-01,2.382376078105574446e-01,-5.905773675887979746e-01,-3.968751817805749732e-03,3.489874358007239441e-01,1.872202140058424821e-02,1.860051970969217594e-02,-5.877852522924711942e-02,-1.100000000000000006e-01,-6.233688103937535807e-01,5.877852522924711942e-02,1.100000000000000006e-01,-7.366311896062465170e-01,3.065289020511936108e-02,-9.016443064599315160e-02,-3.226707062860463826e-01,6.934710979488065141e-02,1.298355693540068356e-01,-4.173292937139536085e-01
-2.922088815129862405e-01,3.793666227249834488e-01,2.782043068119715266e-03,7.120691345996339738e-02,1.851921758805900320e-01,-3.145830796547740005e-01,2.142641032479473129e-01,-6.714023036868007610e-01,-1.639386155517306640e-02,3.490610897375452382e-01,1.958198324588381750e-02,1.703940665430503376e-02,-4.539904997395446257e-02,-1.100000000000000006e-01,-6.176295433068141882e-01,4.539904997395446257e-02,1.100000000000000006e-01,-7.423704566931859095e-01,3.977580452283156071e-02,-9.000827143965824118e-02,-3.207312794544279200e-01,6.022419547716845178e-02,1.299917285603417461e-01,-4.192687205455720156e-01
-2.418044428697857240e-01,4.622966703091827556e-01,8.810760645490696430e-03,9.227356492626355433e-02,1.520718893937495209e-01,-3.717175438095703388e-01,1.930679167301475596e-01,-7.407176961220552913e-01,-3.098756273255560273e-02,3.490656931085965309e-01,1.996643096950706867e-02,1.457753668247959052e-02,-3.090169943749450712e-02,-1.100000000000000006e-01,-6.134260438593392983e-01,3.090169943749450712e-02,1.100000000000000006e-01,-7.465739561406607994e-01,4.915047246535102221e-02,-9.034437493922210793e-02,-3.200050120361503936e-01,5.084952753464899028e-02,1.296556250607778793e-01,-4.199949879638495975e-01
-1.915338529941721657e-01,5.348385334533621860e-01,1.318858593751935995e-02,1.124415214076295716e-01,1.189504629203675529e-01,-4.184620240911391953e-01,1.744406738135752533e-01,-7.942577162624687714e-01,-4.719277263855028992e-02,3.490659808192872471e-01,1.985221780112821771e-02,1.166413896012097329e-02,-1.564344650402275591e-02,-1.100000000000000006e-01,-6.108618161583403428e-01,1.564344650402275591e-02,1.100000000000000006e-01,-7.491381838416597549e-01,5.854605859519383670e-02,-9.116446516106192777e-02,-3.205097871453950198e-01,4.145394140480616885e-02,1.288355348389380595e-01,-4.194902128546049713e-01
-1.421519329442031687e-01,5.953693400280625214e-01,1.591602986310408641e-02,1.297194457235953113e-01,8.632316183585715674e-02,-4.543397535389044339e-01,1.582451059998832565e-01,-8.301158477194996443e-01,-6.451373185727488080e-02,3.490659988012054238e-01,1.924197278445378967e-02,8.703821904366268111e-03,3.369016658928397813e-16,-1.100000000000000006e-01,-6.100000000000000977e-01,-3.369016658928397813e-16,1.100000000000000006e-01,-7.500000000000000000e-01,6.773121239968055152e-02,-9.244834876219258646e-02,-3.222331755437197187e-01,3.226878760031939852e-02,1.275516512378074008e-01,-4.177668244562802169e-01
-9.447163462308494353e-02,6.433256773732851652e-01,1.705646484154001857e-02,1.426945809658502484e-01,5.475217720651126552e-02,-4.797609735117076557e-01,1.444180509879904040e-01,-8.476869101483023305e-01,-8.251230611392669501e-02,3.459210837708924791e-01,1.815963020595990837e-02,5.985677071239758895e-03,1.564344650402342204e-02,-1.100000000000000006e-01,-6.108618161583404538e-01,-1.564344650402342204e-02,1.100000000000000006e-01,-7.491381838416596439e-01,7.647976490836699837e-02,-9.416441226738886394e-02,-3.251327416891595656e-01,2.352023509163301065e-02,1.258355877326111372e-01,-4.148672583108404255e-01
-4.934908311153971688e-02,6.773332858454165217e-01,1.673834903915331559e-02,1.498575406396812915e-01,2.485129274913332881e-02,-4.945905135244952344e-01,1.329767390242875547e-01,-8.412338040720602761e-01,-1.008067836223738439e-01,3.118859117682070692e-01,1.664499566594015642e-02,3.185372749501416342e-03,3.090169943749506223e-02,-1.100000000000000006e-01,-6.134260438593394094e-01,-3.090169943749506223e-02,1.100000000000000006e-01,-7.465739561406606883e-01,8.457629772370817145e-02,-9.627040049786458886e-02,-3.291370886401054907e-01,1.542370227629179941e-02,1.237295995021354122e-01,-4.108629113598944449e-01
-7.673188385067707812e-03,6.991592328519469213e-01,1.515302578485581454e-02,1.516888329904853283e-01,-2.725583435156156940e-03,-5.007475828906752247e-01,1.240306783858059342e-01,-8.177541401319967651e-01,-1.190744289966149533e-01,2.714130818281362267e-01,1.474786567659221344e-02,7.917428048741948637e-04,4.539904997395498298e-02,-1.100000000000000006e-01,-6.176295433068144103e-01,-4.539904997395498298e-02,1.100000000000000006e-01,-7.423704566931856874e-01,9.182144733693851923e-02,-9.871445703401124372e-02,-3.341476160849596311e-01,8.178552663061416927e-03,1.212855429659887574e-01,-4.058523839150403045e-01
2.963590179868103025e-02,7.098632864869179881e-01,1.254818146290644088e-02,1.487310921673606623e-01,-2.728787781475172994e-02,-4.994660274918540366e-01,1.178014005988049784e-01,-7.809684223236663669e-01,-1.370588412565317826e-01,2.278042664174821930e-01,1.252216408640713548e-02,-1.026656369146222627e-03,5.877852522924758433e-02,-1.100000000000000006e-01,-6.233688103937539138e-01,-5.877852522924758433e-02,1.100000000000000006e-01,-7.366311896062461839e-01,9.803681411930731393e-02,-1.014364010925502685e-01,-3.400409482090424595e-01,1.963185880692656926e-03,1.185635989074497326e-01,-3.999590517909574761e-01
6.161585822202452628e-02,7.103901144865861772e-01,9.217067175084088515e-03,1.416878746226353514e-01,-4.810022722830257363e-02,-4.917885642703426763e-01,1.146525911131217046e-01,-7.340487569097732257e-01,-1.545832616036535434e-01,1.832300851382928364e-01,1.002054977263934325e-02,-2.367965080447272195e-03,7.071067811865504316e-02,-1.100000000000000006e-01,-6.305025253169419530e-01,-7.071067811865504316e-02,1.100000000000000006e-01,-7.294974746830581447e-01,1.030693551130129615e-01,-1.043692093771460688e-01,-3.466719716166111187e-01,-3.069355113012990632e-03,1.156307906228539323e-01,-3.933280283833888724e-01
8.723604095433604155e-02,7.018536152211375390e-01,5.483080761084398180e-03,1.314589164207800864e-01,-6.436012173376982892e-02,-4.787833981384956861e-01,1.151334353455743253e-01,-6.803817301685667340e-01,-1.715712081079123486e-01,1.398613826580408226e-01,7.290000459073186188e-03,-3.411449538235425405e-03,8.090169943749499215e-02,-1.100000000000000006e-01,-6.388550323395271180e-01,-8.090169943749499215e-02,1.100000000000000006e-01,-7.211449676604729797e-01,1.067951524567443827e-01,-1.074406664143991857e-01,-3.538774085042661888e-01,-6.795152456744370240e-03,1.125593335856008154e-01,-3.861225914957338023e-01
1.053548694613061776e-01,6.854951399744149132e-01,1.678016517595699864e-03,1.190053900479058069e-01,-7.516005639098467805e-02,-4.615221586756769190e-01,1.200377521513185664e-01,-6.233272708742073620e-01,-1.880758526936279762e-01,9.974724695718492629e-02,4.369022085685802387e-03,-4.366040839594581210e-03,8.910065241883698139e-02,-1.100000000000000006e-01,-6.482206650182320562e-01,-8.910065241883698139e-02,1.100000000000000006e-01,-7.117793349817680415e-01,1.091224646546864741e-01,-1.105751427384709801e-01,-3.614798371023597023e-01,-9.122464654686468499e-03,1.094248572615290210e-01,-3.785201628976402333e-01
1.146620808150949633e-01,6.625800878602534638e-01,-1.890103040922567167e-03,1.052190971445142592e-01,-7.943570573496930298e-02,-4.410041489838746331e-01,1.304791654639689824e-01,-5.658964679615160476e-01,-2.043186048997176762e-01,6.461523056271030463e-02,1.287435098138715872e-03,-5.419406970885515089e-03,9.510565162951549467e-02,-1.100000000000000006e-01,-6.583688103937540559e-01,-9.510565162951549467e-02,1.100000000000000006e-01,-7.016311896062460418e-01,1.099939855566195446e-01,-1.136954571395323160e-01,-3.692920603877926089e-01,-9.993985556619532085e-03,1.063045428604676851e-01,-3.707079396122073267e-01
1.136141537208965185e-01,6.342675291553234729e-01,-4.987495030836829393e-03,9.083235139046799689e-02,-7.590858215729666403e-02,-4.180607698341247125e-01,1.479745070381378313e-01,-5.104581687392736322e-01,-2.207334564717602365e-01,3.567820158592304586e-02,-1.929766589103403505e-03,-6.698175941162876589e-03,9.876883405951385198e-02,-1.100000000000000006e-01,-6.690495874471841242e-01,-9.876883405951385198e-02,1.100000000000000006e-01,-6.909504125528159735e-01,1.093882554255259515e-01,-1.167247771212992780e-01,-3.771217154959948803e-01,-9.388255425525939002e-03,1.032752228787007232e-01,-3.628782845040050553e-01
1.003892154377636348e-01,6.015091030975094899e-01,-7.536003586177937238e-03,7.639017381996787703e-02,-6.304935679354936595e-02,-3.932898026092213617e-01,1.745055716380500832e-01,-4.585879697260585863e-01,-2.380022910156926741e-01,1.353823766722573804e-02,-5.252174634723183813e-03,-8.248665217435339342e-03,1.000000000000000056e-01,-1.100000000000000006e-01,-6.800000000000003819e-01,-1.000000000000000056e-01,1.100000000000000006e-01,-6.799999999999997158e-01,1.073201893475362878e-01,-1.195885107720841417e-01,-3.847760103330671866e-01,-7.320189347536289193e-03,1.004114892279158594e-01,-3.552239896669328045e-01
7.293045398958185321e-02,5.650199172974628148e-01,-9.739606996816555992e-03,6.227748628619044630e-02,-3.912876259703094300e-02,-3.670525667964049110e-01,2.124776593391369539e-01,-4.111058022735860629e-01,-2.570391413965397720e-01,-1.772078937307037388e-03,-8.624325639697274712e-03,-1.003981562873102439e-02,9.876883405951371320e-02,-1.100000000000000006e-01,-6.909504125528165286e-01,-9.876883405951371320e-02,1.100000000000000006e-01,-6.690495874471835691e-01,1.038407099730084548e-01,-1.222161434652174888e-01,-3.920664707569725405e-01,-3.840709973008435418e-03,9.778385653478251227e-02,-3.479335292430274507e-01
2.922878092779616216e-02,5.253190287860446395e-01,-1.225311428518259700e-02,4.877165008302328242e-02,-2.497974193335484802e-03,-3.395273341131271883e-01,2.643954788338029882e-01,-3.682489008908335082e-01,-2.788295816935770222e-01,-1.064761765343807780e-02,-1.193481551187447302e-02,-1.198181587144525086e-02,9.510565162951520324e-02,-1.100000000000000006e-01,-7.016311896062467079e-01,-9.510565162951520324e-02,1.100000000000000006e-01,-6.583688103937533898e-01,9.903549363187330590e-02,-1.245429741631814829e-01,-3.988135814364235365e-01,9.645063681267274092e-04,9.545702583681851816e-02,-3.411864185635763991e-01
-3.191699582457624418e-02,4.828051591284728827e-01,-1.631742097927832771e-02,3.609134982022569466e-02,4.768801171439197850e-02,-3.107876914953950909e-01,3.319682847512109292e-01,-3.298837045299219395e-01,-3.039753575647541339e-01,-1.374068819078476562e-02,-1.498012027513419796e-02,-1.395079121639667546e-02,8.910065241883656506e-02,-1.100000000000000006e-01,-7.117793349817685966e-01,-8.910065241883656506e-02,1.100000000000000006e-01,-6.482206650182315011e-01,9.302286069804834023e-02,-1.265117085718838463e-01,-4.048512061141155138e-01,6.977139301951741646e-03,9.348829142811615478e-02,-3.351487938858844218e-01
-1.095522403410333773e-01,4.378336598935960722e-01,-2.363195766968305064e-02,2.442778464480680964e-02,1.102372783054987315e-01,-2.808774127907524010e-01,4.144794111096820610e-01,-2.956860640216284475e-01,-3.318676187596114602e-01,-1.181813277407194052e-02,-1.744878856003457407e-02,-1.581207081670502751e-02,8.090169943749445092e-02,-1.100000000000000006e-01,-7.211449676604734238e-01,-8.090169943749445092e-02,1.100000000000000006e-01,-6.388550323395266739e-01,8.595086214914895995e-02,-1.280738699163274374e-01,-4.100306784327561460e-01,1.404913785085108724e-02,9.192613008367254979e-02,-3.299693215672437896e-01
-1.980260120085595155e-01,3.907770986531011181e-01,-3.546144753777952241e-02,1.395745259037253425e-02,1.798060562167381471e-01,-2.498681818960178935e-01,5.040411986082657947e-01,-2.652653009987172017e-01,-3.478089728115840717e-01,-5.665123502612390283e-03,-1.886183327923155253e-02,-1.743836329118136907e-02,7.071067811865439090e-02,-1.100000000000000006e-01,-7.294974746830585888e-01,-7.071067811865439090e-02,1.100000000000000006e-01,-6.305025253169415089e-01,7.799363406006662447e-02,-1.291909925996958253e-01,-4.142244625941775005e-01,2.200636593993337761e-02,9.080900740030416196e-02,-3.257755374058224906e-01
-2.895443046004846366e-01,3.420655581767035880e-01,-5.160187264023975706e-02,4.841596824616658037e-03,2.492728734053717976e-01,-2.178979182516646851e-01,5.905773675887997509e-01,-2.382376078105572226e-01,-3.489874358007239441e-01,3.968751817806016879e-03,-1.860051970969219329e-02,-1.872202140058423087e-02,5.877852522924690432e-02,-1.100000000000000006e-01,-7.366311896062466280e-01,-5.877852522924690432e-02,1.100000000000000006e-01,-6.233688103937534697e-01,6.934710979488049876e-02,-1.298355693540068356e-01,-4.173292937139536640e-01,3.065289020511954843e-02,9.016443064599315160e-02,-3.226707062860463271e-01
-3.793666227249855027e-01,2.922088815129855743e-01,-7.120691345996382760e-02,-2.782043068119822819e-03,3.145830796547754438e-01,-1.851921758805894214e-01,6.714023036868026484e-01,-2.142641032479471463e-01,-3.490610897375452382e-01,1.639386155517340293e-02,-1.703940665430501988e-02,-1.958198324588377240e-02,4.539904997395423358e-02,-1.100000000000000006e-01,-7.423704566931859095e-01,-4.539904997395423358e-02,1.100000000000000006e-01,-6.176295433068141882e-01,6.022419547716829219e-02,-1.299917285603417461e-01,-4.192687205455720711e-01,3.977580452283181051e-02,9.000827143965824118e-02,-3.207312794544279200e-01
-4.622966703091846430e-01,2.418044428697844195e-01,-9.227356492626397066e-02,-8.810760645490784901e-03,3.717175438095716156e-01,-1.520718893937487715e-01,7.407176961220566236e-01,-1.930679167301468935e-01,-3.490656931085965309e-01,3.098756273255595661e-02,-1.457753668247953847e-02,-1.996643096950697499e-02,3.090169943749418099e-02,-1.100000000000000006e-01,-7.465739561406609104e-01,-3.090169943749418099e-02,1.100000000000000006e-01,-6.134260438593391873e-01,5.084952753464877517e-02,-1.296556250607778793e-01,-4.199949879638495975e-01,4.915047246535132752e-02,9.034437493922212181e-02,-3.200050120361503936e-01
-5.348385334533635183e-01,1.915338529941713608e-01,-1.124415214076299740e-01,-1.318858593751941373e-02,4.184620240911399169e-01,-1.189504629203668451e-01,7.942577162624701037e-01,-1.744406738135748647e-01,-3.490659808192872471e-01,4.719277263854849969e-02,-1.166413896012097329e-02,-1.985221780112766954e-02,1.564344650402250264e-02,-1.100000000000000006e-01,-7.491381838416597549e-01,-1.564344650402250264e-02,1.100000000000000006e-01,-6.108618161583403428e-01,4.145394140480601619e-02,-1.288355348389380595e-01,-4.194902128546049713e-01,5.854605859519403793e-02,9.116446516106194164e-02,-3.205097871453950198e-01
-5.953693400280631876e-01,1.421519329442025581e-01,-1.297194457235955056e-01,-1.591602986310409334e-02,4.543397535389048225e-01,-8.632316183585650449e-02,8.301158477195001995e-01,-1.582451059998826459e-01,-3.490659988012054793e-01,6.451373185727206361e-02,-8.703821904366287193e-03,-1.924197278445290843e-02,-5.022908818413913326e-16,-1.100000000000000006e-01,-7.500000000000000000e-01,5.022908818413913326e-16,1.100000000000000006e-01,-6.100000000000000977e-01,3.226878760031930138e-02,-1.275516512378074008e-01,-4.177668244562802169e-01,6.773121239968069029e-02,9.244834876219258646e-02,-3.222331755437197742e-01
-6.433256773732847211e-01,9.447163462308498516e-02,-1.426945809658501096e-01,-1.705646484154001857e-02,4.797609735117074892e-01,-5.475217720651131409e-02,8.476869101483021085e-01,-1.444180509879902097e-01,-3.459210837708926456e-01,8.251230611392644521e-02,-5.985677071239882928e-03,-1.815963020595992919e-02,-1.564344650402332143e-02,-1.100000000000000006e-01,-7.491381838416596439e-01,1.564344650402332143e-02,1.100000000000000006e-01,-6.108618161583404538e-01,2.352023509163301065e-02,-1.258355877326111372e-01,-4.148672583108404255e-01,7.647976490836698449e-02,9.416441226738885006e-02,-3.251327416891595656e-01
-6.773332858454160776e-01,4.934908311154126426e-02,-1.498575406396812359e-01,-1.673834903915327396e-02,4.945905135244952344e-01,-2.485129274913438352e-02,8.412338040720612753e-01,-1.329767390242878877e-01,-3.118859117682084015e-01,1.008067836223729002e-01,-3.185372749501663540e-03,-1.664499566594012520e-02,-3.090169943749454529e-02,-1.100000000000000006e-01,-7.465739561406607994e-01,3.090169943749454529e-02,1.100000000000000006e-01,-6.134260438593392983e-01,1.542370227629206308e-02,-1.237295995021354816e-01,-4.108629113598946114e-01,8.457629772370793553e-02,9.627040049786451947e-02,-3.291370886401053797e-01
-6.991592328519459221e-01,7.673188385069985504e-03,-1.516888329904853283e-01,-1.515302578485588914e-02,5.007475828906751136e-01,2.725583435154652935e-03,8.177541401319980974e-01,-1.240306783858066142e-01,-2.714130818281383362e-01,1.190744289966142039e-01,-7.917428048742612169e-04,-1.474786567659226548e-02,-4.539904997395425440e-02,-1.100000000000000006e-01,-7.423704566931859095e-01,4.539904997395425440e-02,1.100000000000000006e-01,-6.176295433068141882e-01,8.178552663061805506e-03,-1.212855429659888962e-01,-4.058523839150405821e-01,9.182144733693820005e-02,9.871445703401110494e-02,-3.341476160849594090e-01
-7.098632864869175441e-01,-2.963590179867830326e-02,-1.487310921673611619e-01,-1.254818146290670976e-02,4.994660274918545362e-01,2.728787781474991195e-02,7.809684223236696976e-01,-1.178014005988052282e-01,-2.278042664174857457e-01,1.370588412565302006e-01,1.026656369146077561e-03,-1.252216408640736620e-02,-5.877852522924657125e-02,-1.100000000000000006e-01,-7.366311896062467390e-01,5.877852522924657125e-02,1.100000000000000006e-01,-6.233688103937533587e-01,1.963185880693101015e-03,-1.185635989074499547e-01,-3.999590517909579757e-01,9.803681411930689760e-02,1.014364010925500464e-01,-3.400409482090420155e-01
-7.103901144865863992e-01,-6.161585822202159113e-02,-1.416878746226362396e-01,-9.217067175084411174e-03,4.917885642703436200e-01,4.810022722830067932e-02,7.340487569097779996e-01,-1.146525911131218156e-01,-1.832300851382965556e-01,1.545832616036517670e-01,2.367965080447127346e-03,-1.002054977263958091e-02,-7.071067811865391906e-02,-1.100000000000000006e-01,-7.294974746830589218e-01,7.071067811865391906e-02,1.100000000000000006e-01,-6.305025253169411759e-01,-3.069355113012532665e-03,-1.156307906228542376e-01,-3.933280283833895385e-01,1.030693551130125452e-01,1.043692093771457635e-01,-3.466719716166104526e-01
-7.018536152211387602e-01,-8.723604095433357131e-02,-1.314589164207813632e-01,-5.483080761084902985e-03,4.787833981384972959e-01,6.436012173376857992e-02,6.803817301685729513e-01,-1.151334353455739229e-01,-1.398613826580457908e-01,1.715712081079108775e-01,3.411449538235374664e-03,-7.290000459072902561e-03,-8.090169943749389581e-02,-1.100000000000000006e-01,-7.211449676604739789e-01,8.090169943749389581e-02,1.100000000000000006e-01,-6.388550323395261188e-01,-6.795152456744030234e-03,-1.125593335856011901e-01,-3.861225914957346350e-01,1.067951524567440358e-01,1.074406664143988110e-01,-3.538774085042653561e-01
-6.854951399744176888e-01,-1.053548694613041098e-01,-1.190053900479076943e-01,-1.678016517596243266e-03,4.615221586756797501e-01,7.516005639098354008e-02,6.233272708742156887e-01,-1.200377521513175116e-01,-9.974724695719047740e-02,1.880758526936256447e-01,4.366040839594431157e-03,-4.369022085686248211e-03,-8.910065241883592668e-02,-1.100000000000000006e-01,-7.117793349817694848e-01,8.910065241883592668e-02,1.100000000000000006e-01,-6.482206650182306129e-01,-9.122464654686232577e-03,-1.094248572615294790e-01,-3.785201628976413990e-01,1.091224646546862381e-01,1.105751427384705221e-01,-3.614798371023585921e-01
-6.625800878602576827e-01,-1.146620808150941584e-01,-1.052190971445165629e-01,1.890103040921932692e-03,4.410041489838781859e-01,7.943570573496915033e-02,5.658964679615252624e-01,-1.304791654639668175e-01,-6.461523056271577248e-02,2.043186048997150950e-01,5.419406970885391056e-03,-1.287435098139310882e-03,-9.510565162951468976e-02,-1.100000000000000006e-01,-7.016311896062478182e-01,9.510565162951468976e-02,1.100000000000000006e-01,-6.583688103937522795e-01,-9.993985556619511268e-03,-1.063045428604681986e-01,-3.707079396122086590e-01,1.099939855566195168e-01,1.136954571395318025e-01,-3.692920603877913321e-01
-6.342675291553294681e-01,-1.136141537208977675e-01,-9.083235139047086959e-02,4.987495030836240455e-03,4.180607698341293754e-01,7.590858215729816283e-02,5.104581687392841793e-01,-1.479745070381338345e-01,-3.567820158592807656e-02,2.207334564717572112e-01,6.698175941162554797e-03,1.929766589102734553e-03,-9.876883405951336625e-02,-1.100000000000000006e-01,-6.909504125528179719e-01,9.876883405951336625e-02,1.100000000000000006e-01,-6.690495874471821258e-01,-9.388255425526195741e-03,-1.032752228787013060e-01,-3.628782845040065541e-01,1.093882554255262013e-01,1.167247771212986951e-01,-3.771217154959934370e-01
-6.015091030975170394e-01,-1.003892154377676316e-01,-7.639017381997097178e-02,7.536003586177513966e-03,3.932898026092268018e-01,6.304935679355301581e-02,4.585879697260693555e-01,-1.745055716380437549e-01,-1.353823766722974352e-02,2.380022910156891769e-01,8.248665217434964642e-03,5.252174634722533292e-03,-1.000000000000000056e-01,-1.100000000000000006e-01,-6.800000000000020473e-01,1.000000000000000056e-01,1.100000000000000006e-01,-6.799999999999980504e-01,-7.320189347536851243e-03,-1.004114892279164423e-01,-3.552239896669343588e-01,1.073201893475368568e-01,1.195885107720835588e-01,-3.847760103330656323e-01
-5.650199172974711415e-01,-7.293045398958994396e-02,-6.227748628619344390e-02,9.739606996816111903e-03,3.670525667964107397e-01,3.912876259703791659e-02,4.111058022735957773e-01,-2.124776593391266288e-01,1.772078937304499054e-03,2.570391413965343874e-01,1.003981562873062887e-02,8.624325639696266838e-03,-9.876883405951426831e-02,-1.100000000000000006e-01,-6.690495874471860116e-01,9.876883405951426831e-02,1.100000000000000006e-01,-6.909504125528140861e-01,-3.840709973009386047e-03,-9.778385653478308126e-02,-3.479335292430290050e-01,1.038407099730093985e-01,1.222161434652169199e-01,-3.920664707569709861e-01
-5.253190287860551866e-01,-2.922878092780955769e-02,-4.877165008302666166e-02,1.225311428518180597e-02,3.395273341131346267e-01,2.497974193346715402e-03,3.682489008908438888e-01,-2.643954788337878892e-01,1.064761765343659981e-02,2.788295816935719706e-01,1.198181587144482411e-02,1.193481551187385893e-02,-9.510565162951646612e-02,-1.100000000000000006e-01,-6.583688103937561653e-01,9.510565162951646612e-02,1.100000000000000006e-01,-7.016311896062439324e-01,9.645063681253118748e-04,-9.545702583681908715e-02,-3.411864185635781199e-01,9.903549363187469368e-02,1.245429741631809140e-01,-3.988135814364218712e-01
-4.828051591284849287e-01,3.191699582455723855e-02,-3.609134982022911553e-02,1.631742097927686014e-02,3.107876914954030845e-01,-4.768801171437657416e-02,3.298837045299318205e-01,-3.319682847511906676e-01,1.374068819078472052e-02,3.039753575647480277e-01,1.395079121639606137e-02,1.498012027513368448e-02,-8.910065241883853571e-02,-1.100000000000000006e-01,-6.482206650182341656e-01,8.910065241883853571e-02,1.100000000000000006e-01,-7.117793349817659321e-01,6.977139301949882022e-03,-9.348829142811665438e-02,-3.351487938858860316e-01,9.302286069805013047e-02,1.265117085718833467e-01,-4.048512061141139595e-01
-4.378336598936094504e-01,1.095522403410087026e-01,-2.442778464480995296e-02,2.363195766968030631e-02,2.808774127907612828e-01,-1.102372783054791222e-01,2.956860640216377178e-01,-4.144794111096563594e-01,1.181813277407321033e-02,3.318676187596025229e-01,1.581207081670462158e-02,1.744878856003393916e-02,-8.090169943749717096e-02,-1.100000000000000006e-01,-6.388550323395292274e-01,8.090169943749717096e-02,1.100000000000000006e-01,-7.211449676604708703e-01,1.404913785084886679e-02,-9.192613008367295224e-02,-3.299693215672452329e-01,8.595086214915115264e-02,1.280738699163270489e-01,-4.100306784327547582e-01
-3.907770986531162727e-01,1.980260120085310105e-01,-1.395745259037556481e-02,3.546144753777509540e-02,2.498681818960277745e-01,-1.798060562167161369e-01,2.652653009987259725e-01,-5.040411986082383722e-01,5.665123502615655032e-03,3.478089728115829060e-01,1.743836329118097356e-02,1.886183327923145539e-02,-7.071067811865798525e-02,-1.100000000000000006e-01,-6.305025253169439514e-01,7.071067811865798525e-02,1.100000000000000006e-01,-7.294974746830561463e-01,2.200636593993074083e-02,-9.080900740030445339e-02,-3.257755374058236564e-01,7.799363406006927513e-02,1.291909925996955477e-01,-4.142244625941763347e-01
-3.420655581767201858e-01,2.895443046004537169e-01,-4.841596824619466555e-03,5.160187264023382431e-02,2.178979182516756485e-01,-2.492728734053492878e-01,2.382376078105655215e-01,-5.905773675887713292e-01,-3.968751817802099874e-03,3.489874358007238886e-01,1.872202140058393943e-02,1.860051970969261656e-02,-5.877852522925122725e-02,-1.100000000000000006e-01,-6.233688103937556901e-01,5.877852522925122725e-02,1.100000000000000006e-01,-7.366311896062444076e-01,3.065289020511651960e-02,-9.016443064599329038e-02,-3.226707062860471598e-01,6.934710979488349636e-02,1.298355693540066969e-01,-4.173292937139528314e-01
-2.922088815130038930e-01,3.793666227249538614e-01,2.782043068117297062e-03,7.120691345995634747e-02,1.851921758806016616e-01,-3.145830796547526287e-01,2.142641032479552510e-01,-6.714023036867757810e-01,-1.639386155516828203e-02,3.490610897375452382e-01,1.958198324588357117e-02,1.703940665430567214e-02,-4.539904997395938224e-02,-1.100000000000000006e-01,-6.176295433068159646e-01,4.539904997395938224e-02,1.100000000000000006e-01,-7.423704566931841331e-01,3.977580452282834800e-02,-9.000827143965821342e-02,-3.207312794544284196e-01,6.022419547717167143e-02,1.299917285603417738e-01,-4.192687205455715715e-01
-2.418044428698038484e-01,4.622966703091544449e-01,8.810760645488767417e-03,9.227356492625601869e-02,1.520718893937613170e-01,-3.717175438095515760e-01,1.930679167301541654e-01,-7.407176961220334199e-01,-3.098756273254842444e-02,3.490656931085965309e-01,1.996643096950664539e-02,1.457753668248059666e-02,-3.090169943750002007e-02,-1.100000000000000006e-01,-6.134260438593405196e-01,3.090169943750002007e-02,1.100000000000000006e-01,-7.465739561406595781e-01,4.915047246534760134e-02,-9.034437493922188589e-02,-3.200050120361503936e-01,5.084952753465241115e-02,1.296556250607781013e-01,-4.199949879638495975e-01
-1.915338529941915113e-01,5.348385334533364288e-01,1.318858593751798605e-02,1.124415214076223829e-01,1.189504629203800845e-01,-4.184620240911235967e-01,1.744406738135817481e-01,-7.942577162624518960e-01,-4.719277263854158855e-02,3.490659808192872471e-01,1.985221780112778056e-02,1.166413896012226045e-02,-1.564344650402883091e-02,-1.100000000000000006e-01,-6.108618161583410089e-01,1.564344650402883091e-02,1.100000000000000006e-01,-7.491381838416590888e-01,5.854605859519024236e-02,-9.116446516106151143e-02,-3.205097871453945757e-01,4.145394140480977707e-02,1.288355348389384758e-01,-4.194902128546054154e-01
-1.421519329442235136e-01,5.953693400280399839e-01,1.591602986310332313e-02,1.297194457235890108e-01,8.632316183587065983e-02,-4.543397535388919439e-01,1.582451059998894460e-01,-8.301158477194888752e-01,-6.451373185726730353e-02,3.490659988012054238e-01,1.924197278445424764e-02,8.703821904367520582e-03,-6.260111575871034559e-15,-1.100000000000000006e-01,-6.100000000000000977e-01,6.260111575871034559e-15,1.100000000000000006e-01,-7.500000000000000000e-01,6.773121239967683227e-02,-9.244834876219194808e-02,-3.222331755437187750e-01,3.226878760032318716e-02,1.275516512378080392e-01,-4.177668244562812161e-01
-9.447163462310503856e-02,6.433256773732678457e-01,1.705646484153986939e-02,1.426945809658461128e-01,5.475217720652465064e-02,-4.797609735116993290e-01,1.444180509879956498e-01,-8.476869101483007762e-01,-8.251230611391859038e-02,3.459210837709046360e-01,1.815963020596051553e-02,5.985677071240950650e-03,1.564344650401663928e-02,-1.100000000000000006e-01,-6.108618161583396766e-01,-1.564344650401663928e-02,1.100000000000000006e-01,-7.491381838416604211e-01,7.647976490836336239e-02,-9.416441226738801740e-02,-3.251327416891580668e-01,2.352023509163665704e-02,1.258355877326119698e-01,-4.148672583108419243e-01
-4.934908311156002703e-02,6.773332858454039762e-01,1.673834903915368336e-02,1.498575406396794318e-01,2.485129274914682496e-02,-4.945905135244906825e-01,1.329767390242922176e-01,-8.412338040720682697e-01,-1.008067836223634217e-01,3.118859117682249438e-01,1.664499566593993091e-02,3.185372749502723890e-03,3.090169943748811293e-02,-1.100000000000000006e-01,-6.134260438593377440e-01,-3.090169943748811293e-02,1.100000000000000006e-01,-7.465739561406623537e-01,8.457629772370461874e-02,-9.627040049786353415e-02,-3.291370886401034368e-01,1.542370227629537988e-02,1.237295995021364670e-01,-4.108629113598965543e-01
-7.673188385087046509e-03,6.991592328519391497e-01,1.515302578485679466e-02,1.516888329904855781e-01,-2.725583435143097075e-03,-5.007475828906742255e-01,1.240306783858097645e-01,-8.177541401320115311e-01,-1.190744289966060160e-01,2.714130818281562663e-01,1.474786567659315366e-02,7.917428048751622973e-04,4.539904997394823144e-02,-1.100000000000000006e-01,-6.176295433068119678e-01,-4.539904997394823144e-02,1.100000000000000006e-01,-7.423704566931881299e-01,9.182144733693529959e-02,-9.871445703400999472e-02,-3.341476160849570221e-01,8.178552663064712902e-03,1.212855429659900064e-01,-4.058523839150429691e-01
2.963590179866361363e-02,7.098632864869155457e-01,1.254818146290801947e-02,1.487310921673633546e-01,-2.728787781474028423e-02,-4.994660274918566456e-01,1.178014005988074486e-01,-7.809684223236877942e-01,-1.370588412565231506e-01,2.278042664175044807e-01,1.252216408640839315e-02,-1.026656369145422919e-03,5.877852522924124218e-02,-1.100000000000000006e-01,-6.233688103937506941e-01,-5.877852522924124218e-02,1.100000000000000006e-01,-7.366311896062494036e-01,9.803681411930453837e-02,-1.014364010925488530e-01,-3.400409482090393509e-01,1.963185880695474117e-03,1.185635989074511482e-01,-3.999590517909606402e-01
6.161585822200917051e-02,7.103901144865885087e-01,9.217067175085904771e-03,1.416878746226401253e-01,-4.810022722829268571e-02,-4.917885642703484494e-01,1.146525911131223568e-01,-7.340487569098003151e-01,-1.545832616036442175e-01,1.832300851383162343e-01,1.002054977264062174e-02,-2.367965080446603025e-03,7.071067811864913122e-02,-1.100000000000000006e-01,-6.305025253169377342e-01,-7.071067811864913122e-02,1.100000000000000006e-01,-7.294974746830623635e-01,1.030693551130106578e-01,-1.043692093771444590e-01,-3.466719716166074550e-01,-3.069355113010645286e-03,1.156307906228555421e-01,-3.933280283833925361e-01
8.723604095432400951e-02,7.018536152211444223e-01,5.483080761086547503e-03,1.314589164207864147e-01,-6.436012173376237655e-02,-4.787833981385040127e-01,1.151334353455727710e-01,-6.803817301685969321e-01,-1.715712081079029949e-01,1.398613826580638042e-01,7.290000459074804685e-03,-3.411449538234939249e-03,8.090169943748992676e-02,-1.100000000000000006e-01,-6.388550323395222330e-01,-8.090169943748992676e-02,1.100000000000000006e-01,-7.211449676604778647e-01,1.067951524567427313e-01,-1.074406664143974649e-01,-3.538774085042621365e-01,-6.795152456742718783e-03,1.125593335856025362e-01,-3.861225914957378547e-01
1.053548694612982811e-01,6.854951399744261265e-01,1.678016517597847885e-03,1.190053900479133286e-01,-7.516005639098032043e-02,-4.615221586756878547e-01,1.200377521513143753e-01,-6.233272708742401136e-01,-1.880758526936187891e-01,9.974724695720654788e-02,4.369022085687550121e-03,-4.366040839594068600e-03,8.910065241883294296e-02,-1.100000000000000006e-01,-6.482206650182265051e-01,-8.910065241883294296e-02,1.100000000000000006e-01,-7.117793349817735926e-01,1.091224646546855581e-01,-1.105751427384692037e-01,-3.614798371023553725e-01,-9.122464654685559504e-03,1.094248572615307974e-01,-3.785201628976446186e-01
1.146620808150923126e-01,6.625800878602685628e-01,-1.890103040920541010e-03,1.052190971445225720e-01,-7.943570573496891440e-02,-4.410041489838875117e-01,1.304791654639608500e-01,-5.658964679615493543e-01,-2.043186048997079896e-01,6.461523056272922005e-02,1.287435098140614744e-03,-5.419406970884879313e-03,9.510565162951260809e-02,-1.100000000000000006e-01,-6.583688103937477276e-01,-9.510565162951260809e-02,1.100000000000000006e-01,-7.016311896062523701e-01,1.099939855566194613e-01,-1.136954571395304842e-01,-3.692920603877879460e-01,-9.993985556619448818e-03,1.063045428604695170e-01,-3.707079396122120452e-01
1.136141537209006541e-01,6.342675291553423467e-01,-4.987495030835020944e-03,9.083235139047694806e-02,-7.590858215730149350e-02,-4.180607698341393119e-01,1.479745070381247030e-01,-5.104581687393067169e-01,-2.207334564717498282e-01,3.567820158593869306e-02,-1.929766589101245509e-03,-6.698175941161954583e-03,9.876883405951233930e-02,-1.100000000000000006e-01,-6.690495874471775739e-01,-9.876883405951233930e-02,1.100000000000000006e-01,-6.909504125528225238e-01,1.093882554255267703e-01,-1.167247771212974600e-01,-3.771217154959901618e-01,-9.388255425526764730e-03,1.032752228787025411e-01,-3.628782845040098293e-01
1.003892154377763191e-01,6.015091030975321384e-01,-7.536003586176390732e-03,7.639017381997706413e-02,-6.304935679356102329e-02,-3.932898026092379040e-01,1.745055716380299049e-01,-4.585879697260906718e-01,-2.380022910156822380e-01,1.353823766723776835e-02,-5.252174634721214035e-03,-8.248665217434315855e-03,1.000000000000000056e-01,-1.100000000000000006e-01,-6.799999999999932765e-01,-1.000000000000000056e-01,1.100000000000000006e-01,-6.800000000000068212e-01,1.073201893475380642e-01,-1.195885107720823654e-01,-3.847760103330624126e-01,-7.320189347538051672e-03,1.004114892279176358e-01,-3.552239896669375785e-01
7.293045398960505687e-02,5.650199172974877948e-01,-9.739606996815088416e-03,6.227748628619958482e-02,-3.912876259705071885e-02,-3.670525667964225636e-01,2.124776593391075608e-01,-4.111058022736156503e-01,-2.570391413965264493e-01,-1.772078937299221158e-03,-8.624325639695062939e-03,-1.003981562872977018e-02,9.876883405951532302e-02,-1.100000000000000006e-01,-6.909504125528093121e-01,-9.876883405951532302e-02,1.100000000000000006e-01,-6.690495874471907856e-01,1.038407099730111749e-01,-1.222161434652158513e-01,-3.920664707569679330e-01,-3.840709973011176281e-03,9.778385653478414985e-02,-3.479335292430320581e-01
2.922878092783194603e-02,5.253190287860721730e-01,-1.225311428518051707e-02,4.877165008303208094e-02,-2.497974193365190207e-03,-3.395273341131461731e-01,2.643954788337621875e-01,-3.682489008908605976e-01,-2.788295816935609239e-01,-1.064761765343423018e-02,-1.193481551187225605e-02,-1.198181587144398971e-02,9.510565162951850615e-02,-1.100000000000000006e-01,-7.016311896062396025e-01,-9.510565162951850615e-02,1.100000000000000006e-01,-6.583688103937604952e-01,9.903549363187696963e-02,-1.245429741631800119e-01,-3.988135814364192067e-01,9.645063681230289787e-04,9.545702583681998921e-02,-3.411864185635807845e-01
-3.191699582452676986e-02,4.828051591285035804e-01,-1.631742097927451826e-02,3.609134982023427113e-02,4.768801171435196884e-02,-3.107876914954156855e-01,3.319682847511575274e-01,-3.298837045299472526e-01,-3.039753575647363149e-01,-1.374068819078455919e-02,-1.498012027513247538e-02,-1.395079121639530156e-02,8.910065241884161658e-02,-1.100000000000000006e-01,-7.117793349817617132e-01,-8.910065241884161658e-02,1.100000000000000006e-01,-6.482206650182383845e-01,9.302286069805296154e-02,-1.265117085718825696e-01,-4.048512061141115170e-01,6.977139301946967687e-03,9.348829142811741766e-02,-3.351487938858885296e-01
-1.095522403409726897e-01,4.378336598936292123e-01,-2.363195766967624359e-02,2.442778464481466794e-02,1.102372783054503674e-01,-2.808774127907742169e-01,4.144794111096185008e-01,-2.956860640216514291e-01,-3.318676187595909766e-01,-1.181813277407502485e-02,-1.744878856003312731e-02,-1.581207081670387565e-02,8.090169943750114001e-02,-1.100000000000000006e-01,-7.211449676604669845e-01,-8.090169943750114001e-02,1.100000000000000006e-01,-6.388550323395331132e-01,8.595086214915438616e-02,-1.280738699163264660e-01,-4.100306784327527598e-01,1.404913785084569572e-02,9.192613008367352123e-02,-3.299693215672471758e-01
-1.980260120084920139e-01,3.907770986531367008e-01,-3.546144753776911407e-02,1.395745259037980621e-02,1.798060562166859666e-01,-2.498681818960411805e-01,5.040411986082005136e-01,-2.652653009987379629e-01,-3.478089728115813517e-01,-5.665123502618842587e-03,-1.886183327923120559e-02,-1.743836329118026579e-02,7.071067811866275921e-02,-1.100000000000000006e-01,-7.294974746830528156e-01,-7.071067811866275921e-02,1.100000000000000006e-01,-6.305025253169472821e-01,7.799363406007285560e-02,-1.291909925996951591e-01,-4.142244625941747804e-01,2.200636593992714302e-02,9.080900740030482809e-02,-3.257755374058252107e-01
-2.895443046004144705e-01,3.420655581767414466e-01,-5.160187264022592091e-02,4.841596824623070443e-03,2.492728734053199224e-01,-2.178979182516895818e-01,5.905773675887351359e-01,-2.382376078105765960e-01,-3.489874358007238331e-01,3.968751817797350201e-03,-1.860051970969292187e-02,-1.872202140058348147e-02,5.877852522925669509e-02,-1.100000000000000006e-01,-7.366311896062416320e-01,-5.877852522925669509e-02,1.100000000000000006e-01,-6.233688103937584657e-01,6.934710979488732663e-02,-1.298355693540065303e-01,-4.173292937139517211e-01,3.065289020511267545e-02,9.016443064599345691e-02,-3.226707062860482700e-01
-3.793666227249171130e-01,2.922088815130248207e-01,-7.120691345994749344e-02,-2.782043068114437370e-03,3.145830796547265384e-01,-1.851921758806154006e-01,6.714023036867432515e-01,-2.142641032479645768e-01,-3.490610897375452382e-01,1.639386155516255744e-02,-1.703940665430660542e-02,-1.958198324588327627e-02,4.539904997396525255e-02,-1.100000000000000006e-01,-7.423704566931820237e-01,-4.539904997396525255e-02,1.100000000000000006e-01,-6.176295433068180740e-01,6.022419547717555721e-02,-1.299917285603418016e-01,-4.192687205455710164e-01,3.977580452282444140e-02,9.000827143965818566e-02,-3.207312794544289747e-01
-4.622966703091204166e-01,2.418044428698255532e-01,-9.227356492624677609e-02,-8.810760645486527889e-03,3.717175438095288165e-01,-1.520718893937756111e-01,7.407176961220061084e-01,-1.930679167301627419e-01,-3.490656931085965309e-01,3.098756273254180127e-02,-1.457753668248182310e-02,-1.996643096950657600e-02,3.090169943750645243e-02,-1.100000000000000006e-01,-7.465739561406581348e-01,-3.090169943750645243e-02,1.100000000000000006e-01,-6.134260438593419629e-01,5.084952753465646347e-02,-1.296556250607783511e-01,-4.199949879638495420e-01,4.915047246534343106e-02,9.034437493922164997e-02,-3.200050120361504491e-01
-5.348385334533082291e-01,1.915338529942131052e-01,-1.124415214076143199e-01,-1.318858593751649246e-02,4.184620240911059996e-01,-1.189504629203942676e-01,7.942577162624331333e-01,-1.744406738135892143e-01,-3.490659808192872471e-01,4.719277263853401128e-02,-1.166413896012355803e-02,-1.985221780112803036e-02,1.564344650403550960e-02,-1.100000000000000006e-01,-7.491381838416583117e-01,-1.564344650403550960e-02,1.100000000000000006e-01,-6.108618161583417860e-01,4.145394140481378081e-02,-1.288355348389389476e-01,-4.194902128546058595e-01,5.854605859518632188e-02,9.116446516106105347e-02,-3.205097871453941316e-01
-5.953693400280170023e-01,1.421519329442438861e-01,-1.297194457235825438e-01,-1.591602986310255985e-02,4.543397535388788988e-01,-8.632316183588412128e-02,8.301158477194773289e-01,-1.582451059998958021e-01,-3.490659988012054793e-01,6.451373185726017034e-02,-8.703821904368795603e-03,-1.924197278445464315e-02,1.284487834964343574e-14,-1.100000000000000006e-01,-7.500000000000000000e-01,-1.284487834964343574e-14,1.100000000000000006e-01,-6.100000000000000977e-01,3.226878760032694804e-02,-1.275516512378086775e-01,-4.177668244562822153e-01,6.773121239967294649e-02,9.244834876219130970e-02,-3.222331755437177758e-01
-6.433256773732501932e-01,9.447163462312514748e-02,-1.426945809658415887e-01,-1.705646484153968551e-02,4.797609735116907248e-01,-5.475217720653794556e-02,8.476869101482981117e-01,-1.444180509880011731e-01,-3.459210837709160158e-01,8.251230611391059677e-02,-5.985677071241947249e-03,-1.815963020596107064e-02,-1.564344650400996059e-02,-1.100000000000000006e-01,-7.491381838416611982e-01,1.564344650400996059e-02,1.100000000000000006e-01,-6.108618161583388995e-01,2.352023509164028955e-02,-1.258355877326128025e-01,-4.148672583108433676e-01,7.647976490835971253e-02,9.416441226738719861e-02,-3.251327416891566235e-01
-6.773332858453924299e-01,4.934908311157820693e-02,-1.498575406396774889e-01,-1.673834903915413092e-02,4.945905135244864637e-01,-2.485129274915886047e-02,8.412338040720747090e-01,-1.329767390242964087e-01,-3.118859117682410975e-01,1.008067836223558583e-01,-3.185372749503888323e-03,-1.664499566594069072e-02,-3.090169943748185058e-02,-1.100000000000000006e-01,-7.465739561406636859e-01,3.090169943748185058e-02,1.100000000000000006e-01,-6.134260438593364118e-01,1.542370227629859952e-02,-1.237295995021374245e-01,-4.108629113598984417e-01,8.457629772370139909e-02,9.627040049786257658e-02,-3.291370886401015494e-01
-6.991592328519322663e-01,7.673188385104133535e-03,-1.516888329904858834e-01,-1.515302578485772100e-02,5.007475828906733373e-01,2.725583435131811831e-03,8.177541401320245207e-01,-1.240306783858131368e-01,-2.714130818281747515e-01,1.190744289965983277e-01,-7.917428048760402843e-04,-1.474786567659410429e-02,-4.539904997394220154e-02,-1.100000000000000006e-01,-7.423704566931902393e-01,4.539904997394220154e-02,1.100000000000000006e-01,-6.176295433068098584e-01,8.178552663067620299e-03,-1.212855429659911305e-01,-4.058523839150453005e-01,9.182144733693231586e-02,9.871445703400887062e-02,-3.341476160849546351e-01
-7.098632864869131032e-01,-2.963590179864867766e-02,-1.487310921673655473e-01,-1.254818146290918868e-02,4.994660274918585330e-01,2.728787781473050039e-02,7.809684223237061129e-01,-1.178014005988093360e-01,-2.278042664175237431e-01,1.370588412565152403e-01,1.026656369144780638e-03,-1.252216408640926051e-02,-5.877852522923576739e-02,-1.100000000000000006e-01,-7.366311896062522901e-01,5.877852522923576739e-02,1.100000000000000006e-01,-6.233688103937478076e-01,1.963185880697902730e-03,-1.185635989074523694e-01,-3.999590517909633602e-01,9.803681411930216527e-02,1.014364010925476317e-01,-3.400409482090367419e-01
-7.103901144865900630e-01,-6.161585822199702051e-02,-1.416878746226436780e-01,-9.217067175087446940e-03,4.917885642703526683e-01,4.810022722828419250e-02,7.340487569098212983e-01,-1.146525911131229397e-01,-1.832300851383349416e-01,1.545832616036366403e-01,2.367965080446166742e-03,-1.002054977264322730e-02,-7.071067811864448216e-02,-1.100000000000000006e-01,-7.294974746830655832e-01,7.071067811864448216e-02,1.100000000000000006e-01,-6.305025253169345145e-01,-3.069355113008799540e-03,-1.156307906228568050e-01,-3.933280283833954782e-01,1.030693551130087426e-01,1.043692093771431961e-01,-3.466719716166044574e-01
-7.018536152211497514e-01,-8.723604095431450323e-02,-1.314589164207913552e-01,-5.483080761088218041e-03,4.787833981385106741e-01,6.436012173375646461e-02,6.803817301686214680e-01,-1.151334353455718412e-01,-1.398613826580820396e-01,1.715712081078959172e-01,3.411449538234514675e-03,-7.290000459076057156e-03,-8.090169943748594383e-02,-1.100000000000000006e-01,-7.211449676604816394e-01,8.090169943748594383e-02,1.100000000000000006e-01,-6.388550323395184583e-01,-6.795152456741414271e-03,-1.125593335856038685e-01,-3.861225914957410188e-01,1.067951524567414268e-01,1.074406664143961326e-01,-3.538774085042589723e-01
-6.854951399744347862e-01,-1.053548694612922998e-01,-1.190053900479190463e-01,-1.678016517599429953e-03,4.615221586756960148e-01,7.516005639097697588e-02,6.233272708742650936e-01,-1.200377521513110585e-01,-9.974724695722292367e-02,1.880758526936116837e-01,4.366040839593610633e-03,-4.369022085688818204e-03,-8.910065241882986209e-02,-1.100000000000000006e-01,-7.117793349817778115e-01,8.910065241882986209e-02,1.100000000000000006e-01,-6.482206650182222862e-01,-9.122464654684865615e-03,-1.094248572615321435e-01,-3.785201628976479493e-01,1.091224646546848642e-01,1.105751427384678576e-01,-3.614798371023520418e-01
-6.625800878602801092e-01,-1.146620808150905640e-01,-1.052190971445289280e-01,1.890103040919052617e-03,4.410041489838970596e-01,7.943570573496878950e-02,5.658964679615743343e-01,-1.304791654639547716e-01,-6.461523056274336152e-02,2.043186048997010507e-01,5.419406970884293843e-03,-1.287435098142067358e-03,-9.510565162951051255e-02,-1.100000000000000006e-01,-7.016311896062568110e-01,9.510565162951051255e-02,1.100000000000000006e-01,-6.583688103937432867e-01,-9.993985556619393307e-03,-1.063045428604708492e-01,-3.707079396122153758e-01,1.099939855566194058e-01,1.136954571395291519e-01,-3.692920603877845043e-01
-6.342675291553551142e-01,-1.136141537209036240e-01,-9.083235139048308204e-02,4.987495030833784954e-03,4.180607698341495260e-01,7.590858215730496295e-02,5.104581687393295875e-01,-1.479745070381152938e-01,-3.567820158594965652e-02,2.207334564717429171e-01,6.698175941161378655e-03,1.929766589099895027e-03,-9.876883405951128458e-02,-1.100000000000000006e-01,-6.909504125528272978e-01,9.876883405951128458e-02,1.100000000000000006e-01,-6.690495874471727999e-01,-9.388255425527340658e-03,-1.032752228787038457e-01,-3.628782845040131599e-01,1.093882554255273254e-01,1.167247771212961555e-01,-3.771217154959869422e-01
-6.015091030975466824e-01,-1.003892154377848400e-01,-7.639017381998311484e-02,7.536003586175508626e-03,3.932898026092485622e-01,6.304935679356851730e-02,4.585879697261115995e-01,-1.745055716380163602e-01,-1.353823766724561797e-02,2.380022910156736893e-01,8.248665217433578598e-03,5.252174634719638038e-03,-1.000000000000000056e-01,-1.100000000000000006e-01,-6.800000000000113731e-01,1.000000000000000056e-01,1.100000000000000006e-01,-6.799999999999887246e-01,-7.320189347539252100e-03,-1.004114892279187599e-01,-3.552239896669407981e-01,1.073201893475392577e-01,1.195885107720812413e-01,-3.847760103330591930e-01
-5.650199172975034489e-01,-7.293045398962005876e-02,-6.227748628620528165e-02,9.739606996814169013e-03,3.670525667964336103e-01,3.912876259706342397e-02,4.111058022736340800e-01,-2.124776593390886870e-01,1.772078937294409035e-03,2.570391413965179006e-01,1.003981562872895313e-02,8.624325639693633527e-03,-9.876883405951636385e-02,-1.100000000000000006e-01,-6.690495874471953375e-01,9.876883405951636385e-02,1.100000000000000006e-01,-6.909504125528047602e-01,-3.840709973012959577e-03,-9.778385653478521844e-02,-3.479335292430351112e-01,1.038407099730128819e-01,1.222161434652147827e-01,-3.920664707569650465e-01
-5.253190287860901586e-01,-2.922878092785392151e-02,-4.877165008303781246e-02,1.225311428517925766e-02,3.395273341131585521e-01,2.497974193383429090e-03,3.682489008908785277e-01,-2.643954788337374850e-01,1.064761765343158473e-02,2.788295816935514315e-01,1.198181587144313449e-02,1.193481551187093592e-02,-9.510565162952060170e-02,-1.100000000000000006e-01,-6.583688103937650471e-01,9.510565162952060170e-02,1.100000000000000006e-01,-7.016311896062350506e-01,9.645063681206975104e-04,-9.545702583682091902e-02,-3.411864185635835600e-01,9.903549363187931498e-02,1.245429741631790821e-01,-3.988135814364164311e-01
-4.828051591285218991e-01,3.191699582449800815e-02,-3.609134982023941285e-02,1.631742097927225271e-02,3.107876914954278980e-01,-4.768801171432852232e-02,3.298837045299622961e-01,-3.319682847511264412e-01,1.374068819078447766e-02,3.039753575647252681e-01,1.395079121639443594e-02,1.498012027513129577e-02,-8.910065241884460030e-02,-1.100000000000000006e-01,-6.482206650182424923e-01,8.910065241884460030e-02,1.100000000000000006e-01,-7.117793349817576054e-01,6.977139301944296212e-03,-9.348829142811815318e-02,-3.351487938858908056e-01,9.302286069805570934e-02,1.265117085718818479e-01,-4.048512061141091856e-01
-4.378336598936486412e-01,1.095522403409370654e-01,-2.442778464481942455e-02,2.363195766967221556e-02,2.808774127907871510e-01,-1.102372783054219735e-01,2.956860640216650293e-01,-4.144794111095814748e-01,1.181813277407688968e-02,3.318676187595787641e-01,1.581207081670307421e-02,1.744878856003222872e-02,-8.090169943750502579e-02,-1.100000000000000006e-01,-6.388550323395367769e-01,8.090169943750502579e-02,1.100000000000000006e-01,-7.211449676604633208e-01,1.404913785084245526e-02,-9.192613008367409022e-02,-3.299693215672492297e-01,8.595086214915756417e-02,1.280738699163259109e-01,-4.100306784327507614e-01
-3.907770986531567403e-01,1.980260120084546827e-01,-1.395745259038389668e-02,3.546144753776335479e-02,2.498681818960543921e-01,-1.798060562166572396e-01,2.652653009987502308e-01,-5.040411986081640983e-01,5.665123502622359739e-03,3.478089728115799084e-01,1.743836329117966211e-02,1.886183327923107375e-02,-7.071067811866729724e-02,-1.100000000000000006e-01,-6.305025253169505017e-01,7.071067811866729724e-02,1.100000000000000006e-01,-7.294974746830495960e-01,2.200636593992374990e-02,-9.080900740030518892e-02,-3.257755374058267650e-01,7.799363406007625565e-02,1.291909925996947983e-01,-4.142244625941732261e-01
-3.420655581767615416e-01,2.895443046003762788e-01,-4.841596824626471368e-03,5.160187264021838527e-02,2.178979182517026547e-01,-2.492728734052915007e-01,2.382376078105868655e-01,-5.905773675886994978e-01,-3.968751817792913646e-03,3.489874358007237221e-01,1.872202140058304431e-02,1.860051970969342841e-02,-5.877852522926188539e-02,-1.100000000000000006e-01,-6.233688103937611302e-01,5.877852522926188539e-02,1.100000000000000006e-01,-7.366311896062389675e-01,3.065289020510904294e-02,-9.016443064599362345e-02,-3.226707062860493247e-01,6.934710979489097649e-02,1.298355693540063638e-01,-4.173292937139506664e-01
-2.922088815130464701e-01,3.793666227248798095e-01,2.782043068111437166e-03,7.120691345993869492e-02,1.851921758806297502e-01,-3.145830796547002262e-01,2.142641032479743191e-01,-6.714023036867110550e-01,-1.639386155515655877e-02,3.490610897375452382e-01,1.958198324588299177e-02,1.703940665430748666e-02,-4.539904997397128245e-02,-1.100000000000000006e-01,-6.176295433068201834e-01,4.539904997397128245e-02,1.100000000000000006e-01,-7.423704566931799143e-01,3.977580452282045154e-02,-9.000827143965813015e-02,-3.207312794544295853e-01,6.022419547717956095e-02,1.299917285603418571e-01,-4.192687205455704058e-01
-2.418044428698468140e-01,4.622966703090880536e-01,8.810760645484368159e-03,9.227356492623807471e-02,1.520718893937896277e-01,-3.717175438095071671e-01,1.930679167301711519e-01,-7.407176961219804623e-01,-3.098756273253523708e-02,3.490656931085965309e-01,1.996643096950659682e-02,1.457753668248283271e-02,-3.090169943751271478e-02,-1.100000000000000006e-01,-6.134260438593434062e-01,3.090169943751271478e-02,1.100000000000000006e-01,-7.465739561406566915e-01,4.915047246533959385e-02,-9.034437493922140017e-02,-3.200050120361505046e-01,5.084952753466041864e-02,1.296556250607786009e-01,-4.199949879638494865e-01
-1.915338529942339496e-01,5.348385334532802515e-01,1.318858593751501274e-02,1.124415214076062985e-01,1.189504629204086589e-01,-4.184620240910886801e-01,1.744406738135967083e-01,-7.942577162624144815e-01,-4.719277263853006305e-02,3.490659808192872471e-01,1.985221780112902262e-02,1.166413896012477754e-02,-1.564344650404201481e-02,-1.100000000000000006e-01,-6.108618161583424522e-01,1.564344650404201481e-02,1.100000000000000006e-01,-7.491381838416576455e-01,5.854605859518231120e-02,-9.116446516106060938e-02,-3.205097871453936320e-01,4.145394140481770129e-02,1.288355348389393917e-01,-4.194902128546063591e-01
-1.421519329442645363e-01,5.953693400279942427e-01,1.591602986310167167e-02,1.297194457235760767e-01,8.632316183589773539e-02,-4.543397535388660202e-01,1.582451059999022691e-01,-8.301158477194660046e-01,-6.451373185725246817e-02,3.490659988012054793e-01,1.924197278445486520e-02,8.703821904369879806e-03,-1.942964512341583692e-14,-1.100000000000000006e-01,-6.100000000000000977e-01,1.942964512341583692e-14,1.100000000000000006e-01,-7.500000000000000000e-01,6.773121239966928275e-02,-9.244834876219068520e-02,-3.222331755437168321e-01,3.226878760033073668e-02,1.275516512378093159e-01,-4.177668244562831590e-01
-9.447163462314410454e-02,6.433256773732333178e-01,1.705646484153946346e-02,1.426945809658374809e-01,5.475217720655051884e-02,-4.797609735116825647e-01,1.444180509880062524e-01,-8.476869101482960023e-01,-8.251230611390304726e-02,3.459210837709269515e-01,1.815963020596144534e-02,5.985677071242929102e-03,1.564344650400363232e-02,-1.100000000000000006e-01,-6.108618161583382333e-01,-1.564344650400363232e-02,1.100000000000000006e-01,-7.491381838416618644e-01,7.647976490835625696e-02,-9.416441226738640757e-02,-3.251327416891551803e-01,2.352023509164374859e-02,1.258355877326135797e-01,-4.148672583108448109e-01
-4.934908311159591499e-02,6.773332858453808836e-01,1.673834903915456113e-02,1.498575406396756016e-01,2.485129274917056985e-02,-4.945905135244821893e-01,1.329767390243006553e-01,-8.412338040720808152e-01,-1.008067836223503488e-01,3.118859117682568072e-01,1.664499566594231789e-02,3.185372749504993342e-03,3.090169943747575476e-02,-1.100000000000000006e-01,-6.134260438593349685e-01,-3.090169943747575476e-02,1.100000000000000006e-01,-7.465739561406651292e-01,8.457629772369826271e-02,-9.627040049786164677e-02,-3.291370886400997176e-01,1.542370227630175672e-02,1.237295995021383543e-01,-4.108629113599002736e-01
-7.673188385120785146e-03,6.991592328519256050e-01,1.515302578485863694e-02,1.516888329904862442e-01,-2.725583435120806745e-03,-5.007475828906723381e-01,1.240306783858163980e-01,-8.177541401320376213e-01,-1.190744289965907643e-01,2.714130818281924040e-01,1.474786567659499593e-02,7.917428048769810465e-04,4.539904997393633818e-02,-1.100000000000000006e-01,-6.176295433068077489e-01,-4.539904997393633818e-02,1.100000000000000006e-01,-7.423704566931923488e-01,9.182144733692955418e-02,-9.871445703400778815e-02,-3.341476160849524146e-01,8.178552663070458306e-03,1.212855429659922130e-01,-4.058523839150475765e-01
2.963590179863408169e-02,7.098632864869104386e-01,1.254818146291054350e-02,1.487310921673676289e-01,-2.728787781472114676e-02,-4.994660274918603649e-01,1.178014005988113622e-01,-7.809684223237234324e-01,-1.370588412565077463e-01,2.278042664175420062e-01,1.252216408641142198e-02,-1.026656369144098675e-03,5.877852522923043832e-02,-1.100000000000000006e-01,-6.233688103937451430e-01,-5.877852522923043832e-02,1.100000000000000006e-01,-7.366311896062549547e-01,9.803681411929973666e-02,-1.014364010925464382e-01,-3.400409482090340219e-01,1.963185880700268893e-03,1.185635989074535629e-01,-3.999590517909659693e-01
6.161585822198485662e-02,7.103901144865919504e-01,9.217067175088990844e-03,1.416878746226475083e-01,-4.810022722827701769e-02,-4.917885642703571647e-01,1.146525911131236058e-01,-7.340487569098429477e-01,-1.545832616036298401e-01,1.832300851383533713e-01,1.002054977264293240e-02,-2.367965080445635050e-03,7.071067811863981922e-02,-1.100000000000000006e-01,-6.305025253169312949e-01,-7.071067811863981922e-02,1.100000000000000006e-01,-7.294974746830688028e-01,1.030693551130069663e-01,-1.043692093771419332e-01,-3.466719716166016263e-01,-3.069355113006953795e-03,1.156307906228580679e-01,-3.933280283833983648e-01
8.723604095430555205e-02,7.018536152211548584e-01,5.483080761089785364e-03,1.314589164207961292e-01,-6.436012173375094125e-02,-4.787833981385171134e-01,1.151334353455706477e-01,-6.803817301686437835e-01,-1.715712081078890339e-01,1.398613826580997199e-01,7.290000459077237635e-03,-3.411449538234194619e-03,8.090169943748216907e-02,-1.100000000000000006e-01,-6.388550323395147945e-01,-8.090169943748216907e-02,1.100000000000000006e-01,-7.211449676604853032e-01,1.067951524567401778e-01,-1.074406664143948559e-01,-3.538774085042559192e-01,-6.795152456740172209e-03,1.125593335856051452e-01,-3.861225914957440719e-01
1.053548694612866238e-01,6.854951399744427798e-01,1.678016517600974290e-03,1.190053900479247084e-01,-7.516005639097386726e-02,-4.615221586757046190e-01,1.200377521513081303e-01,-6.233272708742887414e-01,-1.880758526936057162e-01,9.974724695724029866e-02,4.369022085689924957e-03,-4.366040839593520427e-03,8.910065241882696163e-02,-1.100000000000000006e-01,-6.482206650182182894e-01,-8.910065241882696163e-02,1.100000000000000006e-01,-7.117793349817818083e-01,1.091224646546842258e-01,-1.105751427384665669e-01,-3.614798371023488777e-01,-9.122464654684213359e-03,1.094248572615334342e-01,-3.785201628976511135e-01
1.146620808150886073e-01,6.625800878602907673e-01,-1.890103040917698232e-03,1.052190971445348261e-01,-7.943570573496844256e-02,-4.410041489839062190e-01,1.304791654639491094e-01,-5.658964679615980931e-01,-2.043186048996942505e-01,6.461523056275679522e-02,1.287435098143326333e-03,-5.419406970883803784e-03,9.510565162950847251e-02,-1.100000000000000006e-01,-6.583688103937388458e-01,-9.510565162950847251e-02,1.100000000000000006e-01,-7.016311896062612519e-01,1.099939855566193503e-01,-1.136954571395278613e-01,-3.692920603877812846e-01,-9.993985556619337796e-03,1.063045428604721399e-01,-3.707079396122187065e-01
1.136141537209065105e-01,6.342675291553685479e-01,-4.987495030832691210e-03,9.083235139048934093e-02,-7.590858215730814096e-02,-4.180607698341597955e-01,1.479745070381059402e-01,-5.104581687393529021e-01,-2.207334564717348679e-01,3.567820158596059915e-02,-1.929766589098558423e-03,-6.698175941160747215e-03,9.876883405951025763e-02,-1.100000000000000006e-01,-6.690495874471682480e-01,-9.876883405951025763e-02,1.100000000000000006e-01,-6.909504125528318497e-01,1.093882554255279083e-01,-1.167247771212949481e-01,-3.771217154959835560e-01,-9.388255425527902709e-03,1.032752228787050530e-01,-3.628782845040164351e-01
1.003892154377930557e-01,6.015091030975613373e-01,-7.536003586174463455e-03,7.639017381998923495e-02,-6.304935679357617784e-02,-3.932898026092593868e-01,1.745055716380032040e-01,-4.585879697261325827e-01,-2.380022910156672777e-01,1.353823766725345892e-02,-5.252174634718398578e-03,-8.248665217432818789e-03,1.000000000000000056e-01,-1.100000000000000006e-01,-6.799999999999840616e-01,-1.000000000000000056e-01,1.100000000000000006e-01,-6.800000000000160361e-01,1.073201893475403956e-01,-1.195885107720800616e-01,-3.847760103330560844e-01,-7.320189347540390079e-03,1.004114892279199395e-01,-3.552239896669439068e-01
7.293045398963464432e-02,5.650199172975198803e-01,-9.739606996813230527e-03,6.227748628621111032e-02,-3.912876259707585153e-02,-3.670525667964451566e-01,2.124776593390700907e-01,-4.111058022736537865e-01,-2.570391413965093519e-01,-1.772078937289009275e-03,-8.624325639692238810e-03,-1.003981562872823322e-02,9.876883405951739081e-02,-1.100000000000000006e-01,-6.909504125528002083e-01,-9.876883405951739081e-02,1.100000000000000006e-01,-6.690495874471998894e-01,1.038407099730146721e-01,-1.222161434652137696e-01,-3.920664707569620488e-01,-3.840709973014659606e-03,9.778385653478623152e-02,-3.479335292430379423e-01
2.922878092787579984e-02,5.253190287861065899e-01,-1.225311428517797223e-02,4.877165008304305827e-02,-2.497974193401534398e-03,-3.395273341131697098e-01,2.643954788337123385e-01,-3.682489008908944594e-01,-2.788295816935415505e-01,-1.064761765342937816e-02,-1.193481551186951345e-02,-1.198181587144232438e-02,9.510565162952257234e-02,-1.100000000000000006e-01,-7.016311896062308318e-01,-9.510565162952257234e-02,1.100000000000000006e-01,-6.583688103937692659e-01,9.903549363188152155e-02,-1.245429741631782078e-01,-3.988135814364138221e-01,9.645063681184770643e-04,9.545702583682179332e-02,-3.411864185635861690e-01
-3.191699582446819172e-02,4.828051591285408839e-01,-1.631742097926995247e-02,3.609134982024463090e-02,4.768801171430429170e-02,-3.107876914954406655e-01,3.319682847510944668e-01,-3.298837045299780613e-01,-3.039753575647139439e-01,-1.374068819078400755e-02,-1.498012027513006585e-02,-1.395079121639368827e-02,8.910065241884768117e-02,-1.100000000000000006e-01,-7.117793349817533866e-01,-8.910065241884768117e-02,1.100000000000000006e-01,-6.482206650182467111e-01,9.302286069805854041e-02,-1.265117085718810708e-01,-4.048512061141067431e-01,6.977139301941465144e-03,9.348829142811891646e-02,-3.351487938858932480e-01
-1.095522403409007473e-01,4.378336598936686253e-01,-2.363195766966819447e-02,2.442778464482415340e-02,1.102372783053931354e-01,-2.808774127908004181e-01,4.144794111095434497e-01,-2.956860640216791847e-01,-3.318676187595665517e-01,-1.181813277407864522e-02,-1.744878856003129197e-02,-1.581207081670240461e-02,8.090169943750899484e-02,-1.100000000000000006e-01,-7.211449676604594350e-01,-8.090169943750899484e-02,1.100000000000000006e-01,-6.388550323395406627e-01,8.595086214916079770e-02,-1.280738699163253280e-01,-4.100306784327487630e-01,1.404913785083920091e-02,9.192613008367467309e-02,-3.299693215672512281e-01
-1.980260120084159081e-01,3.907770986531770019e-01,-3.546144753775735264e-02,1.395745259038811206e-02,1.798060562166273191e-01,-2.498681818960677981e-01,5.040411986081267948e-01,-2.652653009987621657e-01,-3.478089728115784096e-01,-5.665123502625916789e-03,-1.886183327923073721e-02,-1.743836329117897516e-02,7.071067811867208508e-02,-1.100000000000000006e-01,-7.294974746830462653e-01,-7.071067811867208508e-02,1.100000000000000006e-01,-6.305025253169538324e-01,7.799363406007983612e-02,-1.291909925996944097e-01,-4.142244625941716718e-01,2.200636593992015555e-02,9.080900740030557750e-02,-3.257755374058283193e-01
-2.895443046003376431e-01,3.420655581767829134e-01,-5.160187264021075942e-02,4.841596824630113420e-03,2.492728734052627182e-01,-2.178979182517167823e-01,5.905773675886641927e-01,-2.382376078105978290e-01,-3.489874358007236665e-01,3.968751817787797079e-03,-1.860051970969371984e-02,-1.872202140058256553e-02,5.877852522926735324e-02,-1.100000000000000006e-01,-7.366311896062361919e-01,-5.877852522926735324e-02,1.100000000000000006e-01,-6.233688103937639058e-01,6.934710979489480676e-02,-1.298355693540061973e-01,-4.173292937139496117e-01,3.065289020510519186e-02,9.016443064599378998e-02,-3.226707062860503794e-01
-3.793666227248435052e-01,2.922088815130668982e-01,-7.120691345992999355e-02,-2.782043068108675486e-03,3.145830796546745245e-01,-1.851921758806431562e-01,6.714023036866786365e-01,-2.142641032479834229e-01,-3.490610897375452382e-01,1.639386155515126439e-02,-1.703940665430836443e-02,-1.958198324588279748e-02,4.539904997397698622e-02,-1.100000000000000006e-01,-7.423704566931778048e-01,-4.539904997397698622e-02,1.100000000000000006e-01,-6.176295433068222929e-01,6.022419547718334265e-02,-1.299917285603418848e-01,-4.192687205455699062e-01,3.977580452281665596e-02,9.000827143965810240e-02,-3.207312794544300849e-01
-4.622966703090545804e-01,2.418044428698686021e-01,-9.227356492622917905e-02,-8.810760645482119957e-03,3.717175438094850737e-01,-1.520718893938039773e-01,7.407176961219539280e-01,-1.930679167301798949e-01,-3.490656931085965309e-01,3.098756273252977270e-02,-1.457753668248413723e-02,-1.996643096950673907e-02,3.090169943751914367e-02,-1.100000000000000006e-01,-7.465739561406552482e-01,-3.090169943751914367e-02,1.100000000000000006e-01,-6.134260438593448495e-01,5.084952753466447095e-02,-1.296556250607788507e-01,-4.199949879638494310e-01,4.915047246533552766e-02,9.034437493922115037e-02,-3.200050120361505601e-01
-5.348385334532514968e-01,1.915338529942555157e-01,-1.124415214075981523e-01,-1.318858593751348444e-02,4.184620240910709166e-01,-1.189504629204222730e-01,7.942577162623950526e-01,-1.744406738136041468e-01,-3.490659808192872471e-01,4.719277263852002247e-02,-1.166413896012612889e-02,-1.985221780112836690e-02,1.564344650404869350e-02,-1.100000000000000006e-01,-7.491381838416568684e-01,-1.564344650404869350e-02,1.100000000000000006e-01,-6.108618161583432293e-01,4.145394140482171197e-02,-1.288355348389398358e-01,-4.194902128546068587e-01,5.854605859517829358e-02,9.116446516106015141e-02,-3.205097871453931324e-01
-5.953693400279708170e-01,1.421519329442854362e-01,-1.297194457235694987e-01,-1.591602986310085982e-02,4.543397535388528641e-01,-8.632316183591137726e-02,8.301158477194543472e-01,-1.582451059999085141e-01,-3.490659988012054793e-01,6.451373185724229575e-02,-8.703821904371128806e-03,-1.924197278445442458e-02,2.619204758112826094e-14,-1.100000000000000006e-01,-7.500000000000000000e-01,-2.619204758112826094e-14,1.100000000000000006e-01,-6.100000000000000977e-01,3.226878760033460164e-02,-1.275516512378099543e-01,-4.177668244562841582e-01,6.773121239966539697e-02,9.244834876219003295e-02,-3.222331755437158329e-01
-6.433256773732158873e-01,9.447163462316408855e-02,-1.426945809658330955e-01,-1.705646484153932815e-02,4.797609735116739604e-01,-5.475217720656434806e-02,8.476869101482936708e-01,-1.444180509880116092e-01,-3.459210837709386088e-01,8.251230611389492875e-02,-5.985677071244059275e-03,-1.815963020596218780e-02,-1.564344650399695363e-02,-1.100000000000000006e-01,-7.491381838416626415e-01,1.564344650399695363e-02,1.100000000000000006e-01,-6.108618161583374562e-01,2.352023509164738110e-02,-1.258355877326144123e-01,-4.148672583108463097e-01,7.647976490835262098e-02,9.416441226738558878e-02,-3.251327416891536815e-01
-6.773332858453691152e-01,4.934908311161471245e-02,-1.498575406396738252e-01,-1.673834903915496705e-02,4.945905135244778039e-01,-2.485129274918312925e-02,8.412338040720879206e-01,-1.329767390243051239e-01,-3.118859117682731830e-01,1.008067836223416058e-01,-3.185372749506258823e-03,-1.664499566594256769e-02,-3.090169943746932935e-02,-1.100000000000000006e-01,-7.465739561406665725e-01,3.090169943746932935e-02,1.100000000000000006e-01,-6.134260438593335252e-01,1.542370227630506657e-02,-1.237295995021393397e-01,-4.108629113599022720e-01,8.457629772369493204e-02,9.627040049786066145e-02,-3.291370886400977191e-01
-6.991592328519181665e-01,7.673188385137736864e-03,-1.516888329904863275e-01,-1.515302578485955981e-02,5.007475828906711168e-01,2.725583435109616912e-03,8.177541401320499448e-01,-1.240306783858195622e-01,-2.714130818282102231e-01,1.190744289965829650e-01,-7.917428048778378915e-04,-1.474786567659589973e-02,-4.539904997393031522e-02,-1.100000000000000006e-01,-7.423704566931944582e-01,4.539904997393031522e-02,1.100000000000000006e-01,-6.176295433068056395e-01,8.178552663073358764e-03,-1.212855429659933232e-01,-4.058523839150499635e-01,9.182144733692663985e-02,9.871445703400667793e-02,-3.341476160849500276e-01
-7.098632864869083292e-01,-2.963590179861904511e-02,-1.487310921673699049e-01,-1.254818146291180637e-02,4.994660274918624743e-01,2.728787781471107843e-02,7.809684223237418621e-01,-1.178014005988135132e-01,-2.278042664175612408e-01,1.370588412565001135e-01,1.026656369143432758e-03,-1.252216408641135433e-02,-5.877852522922497741e-02,-1.100000000000000006e-01,-7.366311896062577302e-01,5.877852522922497741e-02,1.100000000000000006e-01,-6.233688103937423675e-01,1.963185880702704444e-03,-1.185635989074547841e-01,-3.999590517909686893e-01,9.803681411929729417e-02,1.014364010925452170e-01,-3.400409482090313018e-01
-7.103901144865936157e-01,-6.161585822197235274e-02,-1.416878746226510888e-01,-9.217067175090513931e-03,4.917885642703616056e-01,4.810022722826896163e-02,7.340487569098642640e-01,-1.146525911131243136e-01,-1.832300851383722451e-01,1.545832616036224294e-01,2.367965080445167108e-03,-1.002054977264402180e-02,-7.071067811863504526e-02,-1.100000000000000006e-01,-7.294974746830721335e-01,7.071067811863504526e-02,1.100000000000000006e-01,-6.305025253169279642e-01,-3.069355113005066416e-03,-1.156307906228593724e-01,-3.933280283834013624e-01,1.030693551130050650e-01,1.043692093771406287e-01,-3.466719716165986287e-01
-7.018536152211604096e-01,-8.723604095429604577e-02,-1.314589164208010696e-01,-5.483080761091383912e-03,4.787833981385238302e-01,6.436012173374502932e-02,6.803817301686680974e-01,-1.151334353455695930e-01,-1.398613826581178166e-01,1.715712081078817897e-01,3.411449538233787826e-03,-7.290000459078385155e-03,-8.090169943747820003e-02,-1.100000000000000006e-01,-7.211449676604890779e-01,8.090169943747820003e-02,1.100000000000000006e-01,-6.388550323395110198e-01,-6.795152456738867697e-03,-1.125593335856064775e-01,-3.861225914957472360e-01,1.067951524567388732e-01,1.074406664143935236e-01,-3.538774085042526996e-01
-6.854951399744512175e-01,-1.053548694612806425e-01,-1.190053900479301485e-01,-1.678016517602570670e-03,4.615221586757118910e-01,7.516005639097053659e-02,6.233272708743130552e-01,-1.200377521513048829e-01,-9.974724695725448176e-02,1.880758526935980279e-01,4.366040839592776231e-03,-4.369022085691361308e-03,-8.910065241882389464e-02,-1.100000000000000006e-01,-7.117793349817860271e-01,8.910065241882389464e-02,1.100000000000000006e-01,-6.482206650182140706e-01,-9.122464654683519469e-03,-1.094248572615347803e-01,-3.785201628976544441e-01,1.091224646546835320e-01,1.105751427384652208e-01,-3.614798371023455470e-01
-6.625800878603012034e-01,-1.146620808150867754e-01,-1.052190971445405576e-01,1.890103040916255375e-03,4.410041489839151008e-01,7.943570573496816500e-02,5.658964679616209636e-01,-1.304791654639436693e-01,-6.461523056276984034e-02,2.043186048996876170e-01,5.419406970883337143e-03,-1.287435098144639085e-03,-9.510565162950650187e-02,-1.100000000000000006e-01,-7.016311896062654707e-01,9.510565162950650187e-02,1.100000000000000006e-01,-6.583688103937346270e-01,-9.993985556619282284e-03,-1.063045428604734027e-01,-3.707079396122219261e-01,1.099939855566192948e-01,1.136954571395265984e-01,-3.692920603877780650e-01
-6.342675291553813155e-01,-1.136141537209093832e-01,-9.083235139049536389e-02,4.987495030831437873e-03,4.180607698341698431e-01,7.590858215731162428e-02,5.104581687393753286e-01,-1.479745070380969751e-01,-3.567820158597133362e-02,2.207334564717287617e-01,6.698175941160224196e-03,1.929766589097161103e-03,-9.876883405950920292e-02,-1.100000000000000006e-01,-6.909504125528365126e-01,9.876883405950920292e-02,1.100000000000000006e-01,-6.690495874471635851e-01,-9.388255425528478637e-03,-1.032752228787063298e-01,-3.628782845040197658e-01,1.093882554255284911e-01,1.167247771212936713e-01,-3.771217154959802254e-01
-6.015091030975761033e-01,-1.003892154378016460e-01,-7.639017381999534118e-02,7.536003586173499816e-03,3.932898026092702670e-01,6.304935679358389389e-02,4.585879697261538990e-01,-1.745055716379895205e-01,-1.353823766726153580e-02,2.380022910156594229e-01,8.248665217432112756e-03,5.252174634716979575e-03,-1.000000000000000056e-01,-1.100000000000000006e-01,-6.800000000000206990e-01,1.000000000000000056e-01,1.100000000000000006e-01,-6.799999999999793987e-01,-7.320189347541590508e-03,-1.004114892279211330e-01,-3.552239896669471264e-01,1.073201893475415891e-01,1.195885107720788681e-01,-3.847760103330528647e-01
-5.650199172975358675e-01,-7.293045398964975723e-02,-6.227748628621704308e-02,9.739606996812297246e-03,3.670525667964564809e-01,3.912876259708880644e-02,4.111058022736725492e-01,-2.124776593390510504e-01,1.772078937284119957e-03,2.570391413964999705e-01,1.003981562872737453e-02,8.624325639690538781e-03,-9.876883405951844552e-02,-1.100000000000000006e-01,-6.690495874472045523e-01,9.876883405951844552e-02,1.100000000000000006e-01,-6.909504125527955454e-01,-3.840709973016449841e-03,-9.778385653478730011e-02,-3.479335292430409954e-01,1.038407099730164485e-01,1.222161434652127010e-01,-3.920664707569589957e-01
-5.253190287861245755e-01,-2.922878092789798349e-02,-4.877165008304876204e-02,1.225311428517667292e-02,3.395273341131819778e-01,2.497974193419925937e-03,3.682489008909122230e-01,-2.643954788336873030e-01,1.064761765342675526e-02,2.788295816935316696e-01,1.198181587144149345e-02,1.193481551186817771e-02,-9.510565162952466789e-02,-1.100000000000000006e-01,-6.583688103937738179e-01,9.510565162952466789e-02,1.100000000000000006e-01,-7.016311896062262798e-01,9.645063681161455960e-04,-9.545702583682272313e-02,-3.411864185635889446e-01,9.903549363188386689e-02,1.245429741631772780e-01,-3.988135814364110465e-01
-4.828051591285583699e-01,3.191699582443896510e-02,-3.609134982024953670e-02,1.631742097926772161e-02,3.107876914954522674e-01,-4.768801171428039415e-02,3.298837045299923831e-01,-3.319682847510624923e-01,1.374068819078410990e-02,3.039753575647026751e-01,1.395079121639287469e-02,1.498012027512890532e-02,-8.910065241885058163e-02,-1.100000000000000006e-01,-6.482206650182507079e-01,8.910065241885058163e-02,1.100000000000000006e-01,-7.117793349817493898e-01,6.977139301938793670e-03,-9.348829142811963810e-02,-3.351487938858955240e-01,9.302286069806121882e-02,1.265117085718803491e-01,-4.048512061141044671e-01
-4.378336598936883872e-01,1.095522403408642764e-01,-2.442778464482897594e-02,2.363195766966411787e-02,2.808774127908133522e-01,-1.102372783053638949e-01,2.956860640216927849e-01,-4.144794111095052580e-01,1.181813277408055862e-02,3.318676187595542837e-01,1.581207081670154765e-02,1.744878856003050441e-02,-8.090169943751296389e-02,-1.100000000000000006e-01,-6.388550323395444375e-01,8.090169943751296389e-02,1.100000000000000006e-01,-7.211449676604556602e-01,1.404913785083596045e-02,-9.192613008367524208e-02,-3.299693215672532265e-01,8.595086214916405898e-02,1.280738699163247452e-01,-4.100306784327467646e-01
-3.907770986531978186e-01,1.980260120083771058e-01,-1.395745259039229622e-02,3.546144753775136438e-02,2.498681818960813983e-01,-1.798060562165971210e-01,2.652653009987746557e-01,-5.040411986080890472e-01,5.665123502629241387e-03,3.478089728115769108e-01,1.743836329117845821e-02,1.886183327923054293e-02,-7.071067811867685904e-02,-1.100000000000000006e-01,-6.305025253169571631e-01,7.071067811867685904e-02,1.100000000000000006e-01,-7.294974746830429346e-01,2.200636593991657161e-02,-9.080900740030595220e-02,-3.257755374058298736e-01,7.799363406008344435e-02,1.291909925996940489e-01,-4.142244625941701175e-01
-3.420655581768040077e-01,2.895443046002983967e-01,-4.841596824633727716e-03,5.160187264020295317e-02,2.178979182517306601e-01,-2.492728734052334083e-01,2.382376078106088479e-01,-5.905773675886283325e-01,-3.968751817783134142e-03,3.489874358007235000e-01,1.872202140058208675e-02,1.860051970969418822e-02,-5.877852522927282802e-02,-1.100000000000000006e-01,-6.233688103937666813e-01,5.877852522927282802e-02,1.100000000000000006e-01,-7.366311896062334164e-01,3.065289020510135812e-02,-9.016443064599397039e-02,-3.226707062860514896e-01,6.934710979489865090e-02,1.298355693540060307e-01,-4.173292937139485015e-01
-2.922088815130887696e-01,3.793666227248064793e-01,2.782043068105750742e-03,7.120691345992122279e-02,1.851921758806572005e-01,-3.145830796546483787e-01,2.142641032479934704e-01,-6.714023036866471061e-01,-1.639386155514536980e-02,3.490610897375452382e-01,1.958198324588249564e-02,1.703940665430921098e-02,-4.539904997398301612e-02,-1.100000000000000006e-01,-6.176295433068244023e-01,4.539904997398301612e-02,1.100000000000000006e-01,-7.423704566931756954e-01,3.977580452281266610e-02,-9.000827143965806076e-02,-3.207312794544306955e-01,6.022419547718734639e-02,1.299917285603419403e-01,-4.192687205455692956e-01
-2.418044428698889192e-01,4.622966703090218288e-01,8.810760645480005329e-03,9.227356492622026951e-02,1.520718893938173832e-01,-3.717175438094631468e-01,1.930679167301876664e-01,-7.407176961219276157e-01,-3.098756273252262217e-02,3.490656931085965309e-01,1.996643096950646498e-02,1.457753668248524571e-02,-3.090169943752523948e-02,-1.100000000000000006e-01,-6.134260438593461817e-01,3.090169943752523948e-02,1.100000000000000006e-01,-7.465739561406539160e-01,4.915047246533169045e-02,-9.034437493922091444e-02,-3.200050120361506156e-01,5.084952753466832204e-02,1.296556250607790728e-01,-4.199949879638493755e-01
-1.915338529942771095e-01,5.348385334532227420e-01,1.318858593751194574e-02,1.124415214075900199e-01,1.189504629204365532e-01,-4.184620240910532640e-01,1.744406738136116131e-01,-7.942577162623759568e-01,-4.719277263851255622e-02,3.490659808192872471e-01,1.985221780112850568e-02,1.166413896012727901e-02,-1.564344650405537218e-02,-1.100000000000000006e-01,-6.108618161583440065e-01,1.564344650405537218e-02,1.100000000000000006e-01,-7.491381838416560912e-01,5.854605859517428290e-02,-9.116446516105970732e-02,-3.205097871453926883e-01,4.145394140482573653e-02,1.288355348389402799e-01,-4.194902128546073028e-01
-1.421519329443062529e-01,5.953693400279473913e-01,1.591602986310003756e-02,1.297194457235627818e-01,8.632316183592507464e-02,-4.543397535388397634e-01,1.582451059999148146e-01,-8.301158477194426899e-01,-6.451373185723456583e-02,3.490659988012054238e-01,1.924197278445476805e-02,8.703821904372310153e-03,-3.295445003884068496e-14,-1.100000000000000006e-01,-6.100000000000000977e-01,3.295445003884068496e-14,1.100000000000000006e-01,-7.500000000000000000e-01,6.773121239966152507e-02,-9.244834876218938069e-02,-3.222331755437148337e-01,3.226878760033848048e-02,1.275516512378106204e-01,-4.177668244562851574e-01
-9.447163462318428073e-02,6.433256773731986788e-01,1.705646484153923101e-02,1.426945809658288766e-01,5.475217720657707399e-02,-4.797609735116656893e-01,1.444180509880172991e-01,-8.476869101482918945e-01,-8.251230611388760128e-02,3.459210837709501551e-01,1.815963020596279148e-02,5.985677071245128732e-03,1.564344650399027495e-02,-1.100000000000000006e-01,-6.108618161583367900e-01,-1.564344650399027495e-02,1.100000000000000006e-01,-7.491381838416633077e-01,7.647976490834898500e-02,-9.416441226738476999e-02,-3.251327416891521827e-01,2.352023509165102749e-02,1.258355877326152172e-01,-4.148672583108478085e-01
-4.934908311163352379e-02,6.773332858453570138e-01,1.673834903915537298e-02,1.498575406396718546e-01,2.485129274919562620e-02,-4.945905135244733075e-01,1.329767390243094816e-01,-8.412338040720945820e-01,-1.008067836223331404e-01,3.118859117682892812e-01,1.664499566594332056e-02,3.185372749507320040e-03,3.090169943746289352e-02,-1.100000000000000006e-01,-6.134260438593320819e-01,-3.090169943746289352e-02,1.100000000000000006e-01,-7.465739561406680158e-01,8.457629772369162913e-02,-9.627040049785967613e-02,-3.291370886400958318e-01,1.542370227630838336e-02,1.237295995021403250e-01,-4.108629113599042149e-01
-7.673188385153970406e-03,6.991592328519120603e-01,1.515302578486044799e-02,1.516888329904867161e-01,-2.725583435098910198e-03,-5.007475828906705617e-01,1.240306783858227679e-01,-8.177541401320632675e-01,-1.190744289965759567e-01,2.714130818282285418e-01,1.474786567659671158e-02,7.917428048787631496e-04,4.539904997392460451e-02,-1.100000000000000006e-01,-6.176295433068035301e-01,-4.539904997392460451e-02,1.100000000000000006e-01,-7.423704566931965676e-01,9.182144733692387817e-02,-9.871445703400560934e-02,-3.341476160849478072e-01,8.178552663076127383e-03,1.212855429659943918e-01,-4.058523839150521839e-01
2.963590179860411261e-02,7.098632864869061088e-01,1.254818146291314385e-02,1.487310921673720698e-01,-2.728787781470151663e-02,-4.994660274918645837e-01,1.178014005988154284e-01,-7.809684223237601808e-01,-1.370588412564922864e-01,2.278042664175804755e-01,1.252216408641349844e-02,-1.026656369142738869e-03,5.877852522921950262e-02,-1.100000000000000006e-01,-6.233688103937395919e-01,-5.877852522921950262e-02,1.100000000000000006e-01,-7.366311896062605058e-01,9.803681411929487943e-02,-1.014364010925439957e-01,-3.400409482090285818e-01,1.963185880705133057e-03,1.185635989074560054e-01,-3.999590517909714094e-01
6.161585822195991130e-02,7.103901144865956141e-01,9.217067175092064774e-03,1.416878746226550578e-01,-4.810022722826095415e-02,-4.917885642703662130e-01,1.146525911131247855e-01,-7.340487569098868015e-01,-1.545832616036148521e-01,1.832300851383915630e-01,1.002054977264515631e-02,-2.367965080444672712e-03,7.071067811863025743e-02,-1.100000000000000006e-01,-6.305025253169245225e-01,-7.071067811863025743e-02,1.100000000000000006e-01,-7.294974746830755752e-01,1.030693551130031776e-01,-1.043692093771393381e-01,-3.466719716165956311e-01,-3.069355113003172097e-03,1.156307906228606630e-01,-3.933280283834043600e-01
8.723604095428656724e-02,7.018536152211658496e-01,5.483080761093052716e-03,1.314589164208061489e-01,-6.436012173373915901e-02,-4.787833981385306026e-01,1.151334353455683579e-01,-6.803817301686923003e-01,-1.715712081078745177e-01,1.398613826581358577e-01,7.290000459079631553e-03,-3.411449538233397513e-03,8.090169943747421710e-02,-1.100000000000000006e-01,-6.388550323395071340e-01,-8.090169943747421710e-02,1.100000000000000006e-01,-7.211449676604929637e-01,1.067951524567375687e-01,-1.074406664143921775e-01,-3.538774085042495354e-01,-6.795152456737556246e-03,1.125593335856078236e-01,-3.861225914957504557e-01
1.053548694612746195e-01,6.854951399744597662e-01,1.678016517604169000e-03,1.190053900479358384e-01,-7.516005639096720592e-02,-4.615221586757199956e-01,1.200377521513016771e-01,-6.233272708743379242e-01,-1.880758526935910613e-01,9.974724695727078816e-02,4.369022085692636330e-03,-4.366040839592325203e-03,8.910065241882081377e-02,-1.100000000000000006e-01,-6.482206650182098517e-01,-8.910065241882081377e-02,1.100000000000000006e-01,-7.117793349817902460e-01,1.091224646546828381e-01,-1.105751427384638746e-01,-3.614798371023422163e-01,-9.122464654682825580e-03,1.094248572615361265e-01,-3.785201628976577748e-01
1.146620808150848742e-01,6.625800878603123056e-01,-1.890103040914804496e-03,1.052190971445465667e-01,-7.943570573496790133e-02,-4.410041489839244822e-01,1.304791654639377296e-01,-5.658964679616454996e-01,-2.043186048996807058e-01,6.461523056278378752e-02,1.287435098146047030e-03,-5.419406970882917340e-03,9.510565162950440632e-02,-1.100000000000000006e-01,-6.583688103937301861e-01,-9.510565162950440632e-02,1.100000000000000006e-01,-7.016311896062699116e-01,1.099939855566192393e-01,-1.136954571395252661e-01,-3.692920603877747343e-01,-9.993985556619226773e-03,1.063045428604747350e-01,-3.707079396122253123e-01
1.136141537209122698e-01,6.342675291553948602e-01,-4.987495030830260863e-03,9.083235139050174767e-02,-7.590858215731498271e-02,-4.180607698341803347e-01,1.479745070380876215e-01,-5.104581687393989764e-01,-2.207334564717215175e-01,3.567820158598251218e-02,-1.929766589095800646e-03,-6.698175941159552858e-03,9.876883405950813433e-02,-1.100000000000000006e-01,-6.690495874471589222e-01,-9.876883405950813433e-02,1.100000000000000006e-01,-6.909504125528411755e-01,1.093882554255290601e-01,-1.167247771212923946e-01,-3.771217154959768947e-01,-9.388255425529054565e-03,1.032752228787076065e-01,-3.628782845040230964e-01
1.003892154378102364e-01,6.015091030975910913e-01,-7.536003586172558728e-03,7.639017382000141965e-02,-6.304935679359152667e-02,-3.932898026092811472e-01,1.745055716379758370e-01,-4.585879697261751597e-01,-2.380022910156507077e-01,1.353823766726950512e-02,-5.252174634715348067e-03,-8.248665217431406724e-03,1.000000000000000056e-01,-1.100000000000000006e-01,-6.799999999999746247e-01,-1.000000000000000056e-01,1.100000000000000006e-01,-6.800000000000254730e-01,1.073201893475427965e-01,-1.195885107720776885e-01,-3.847760103330496451e-01,-7.320189347542790936e-03,1.004114892279223126e-01,-3.552239896669503461e-01
7.293045398966487014e-02,5.650199172975525208e-01,-9.739606996811363965e-03,6.227748628622298971e-02,-3.912876259710192095e-02,-3.670525667964681382e-01,2.124776593390320378e-01,-4.111058022736923112e-01,-2.570391413964916993e-01,-1.772078937278787850e-03,-8.624325639689066000e-03,-1.003981562872657482e-02,9.876883405951950023e-02,-1.100000000000000006e-01,-6.909504125527908824e-01,-9.876883405951950023e-02,1.100000000000000006e-01,-6.690495874472092153e-01,1.038407099730182526e-01,-1.222161434652116324e-01,-3.920664707569559426e-01,-3.840709973018240075e-03,9.778385653478836870e-02,-3.479335292430440485e-01
